src/commonTest/resources/com/ashampoo/kim/testdata/xmp/exiftool_sample.xmp
<?xpacket begin='﻿' id='W5M0MpCehiHzreSzNTczkc9d'?>
<x:xmpmeta xmlns:x='adobe:ns:meta/' x:xmptk='Image::ExifTool 12.58'>
<rdf:RDF xmlns:rdf='http://www.w3.org/1999/02/22-rdf-syntax-ns#'>

 <rdf:Description rdf:about=''
  xmlns:Iptc4xmpExt='http://iptc.org/std/Iptc4xmpExt/2008-02-29/'>
  <Iptc4xmpExt:Creator>
   <rdf:Bag>
    <rdf:li rdf:parseType='Resource'/>
   </rdf:Bag>
  </Iptc4xmpExt:Creator>
  <Iptc4xmpExt:PersonInImage>
   <rdf:Bag>
    <rdf:li>Swiper</rdf:li>
   </rdf:Bag>
  </Iptc4xmpExt:PersonInImage>
 </rdf:Description>

 <rdf:Description rdf:about=''
  xmlns:MicrosoftPhoto='http://ns.microsoft.com/photo/1.0'>
  <MicrosoftPhoto:Rating>75</MicrosoftPhoto:Rating>
 </rdf:Description>

 <rdf:Description rdf:about=''
  xmlns:aux='http://ns.adobe.com/exif/1.0/aux/'>
  <aux:Firmware>1.1.8</aux:Firmware>
  <aux:FlashCompensation>0/1</aux:FlashCompensation>
  <aux:ImageNumber>0</aux:ImageNumber>
  <aux:Lens>100mm</aux:Lens>
  <aux:LensID>220</aux:LensID>
 </rdf:Description>

 <rdf:Description rdf:about=''
  xmlns:crs='http://ns.adobe.com/camera-raw-settings/1.0/'>
  <crs:AlreadyApplied>True</crs:AlreadyApplied>
  <crs:AutoLateralCA>0</crs:AutoLateralCA>
  <crs:Blacks2012>0</crs:Blacks2012>
  <crs:BlueHue>-50</crs:BlueHue>
  <crs:BlueSaturation>0</crs:BlueSaturation>
  <crs:CameraProfile>Adobe Standard</crs:CameraProfile>
  <crs:CameraProfileDigest>98BA1AFA1155D0472068BB57D3655975</crs:CameraProfileDigest>
  <crs:Clarity2012>0</crs:Clarity2012>
  <crs:ColorNoiseReduction>25</crs:ColorNoiseReduction>
  <crs:ColorNoiseReductionDetail>50</crs:ColorNoiseReductionDetail>
  <crs:ColorNoiseReductionSmoothness>50</crs:ColorNoiseReductionSmoothness>
  <crs:Contrast2012>0</crs:Contrast2012>
  <crs:ConvertToGrayscale>False</crs:ConvertToGrayscale>
  <crs:CropAngle>0</crs:CropAngle>
  <crs:CropBottom>1</crs:CropBottom>
  <crs:CropConstrainToWarp>0</crs:CropConstrainToWarp>
  <crs:CropLeft>0.157865</crs:CropLeft>
  <crs:CropRight>0.960293</crs:CropRight>
  <crs:CropTop>0.197572</crs:CropTop>
  <crs:DefringeGreenAmount>0</crs:DefringeGreenAmount>
  <crs:DefringeGreenHueHi>60</crs:DefringeGreenHueHi>
  <crs:DefringeGreenHueLo>40</crs:DefringeGreenHueLo>
  <crs:DefringePurpleAmount>0</crs:DefringePurpleAmount>
  <crs:DefringePurpleHueHi>70</crs:DefringePurpleHueHi>
  <crs:DefringePurpleHueLo>30</crs:DefringePurpleHueLo>
  <crs:Dehaze>0</crs:Dehaze>
  <crs:Exposure2012>+0.90</crs:Exposure2012>
  <crs:GrainAmount>0</crs:GrainAmount>
  <crs:GreenHue>+16</crs:GreenHue>
  <crs:GreenSaturation>0</crs:GreenSaturation>
  <crs:HasCrop>True</crs:HasCrop>
  <crs:HasSettings>True</crs:HasSettings>
  <crs:Highlights2012>-100</crs:Highlights2012>
  <crs:HueAdjustmentAqua>+17</crs:HueAdjustmentAqua>
  <crs:HueAdjustmentBlue>0</crs:HueAdjustmentBlue>
  <crs:HueAdjustmentGreen>+58</crs:HueAdjustmentGreen>
  <crs:HueAdjustmentMagenta>0</crs:HueAdjustmentMagenta>
  <crs:HueAdjustmentOrange>+8</crs:HueAdjustmentOrange>
  <crs:HueAdjustmentPurple>0</crs:HueAdjustmentPurple>
  <crs:HueAdjustmentRed>+7</crs:HueAdjustmentRed>
  <crs:HueAdjustmentYellow>-6</crs:HueAdjustmentYellow>
  <crs:LensManualDistortionAmount>0</crs:LensManualDistortionAmount>
  <crs:LensProfileEnable>0</crs:LensProfileEnable>
  <crs:LensProfileSetup>LensDefaults</crs:LensProfileSetup>
  <crs:LuminanceAdjustmentAqua>+8</crs:LuminanceAdjustmentAqua>
  <crs:LuminanceAdjustmentBlue>0</crs:LuminanceAdjustmentBlue>
  <crs:LuminanceAdjustmentGreen>+16</crs:LuminanceAdjustmentGreen>
  <crs:LuminanceAdjustmentMagenta>0</crs:LuminanceAdjustmentMagenta>
  <crs:LuminanceAdjustmentOrange>0</crs:LuminanceAdjustmentOrange>
  <crs:LuminanceAdjustmentPurple>0</crs:LuminanceAdjustmentPurple>
  <crs:LuminanceAdjustmentRed>0</crs:LuminanceAdjustmentRed>
  <crs:LuminanceAdjustmentYellow>+4</crs:LuminanceAdjustmentYellow>
  <crs:LuminanceSmoothing>0</crs:LuminanceSmoothing>
  <crs:OverrideLookVignette>False</crs:OverrideLookVignette>
  <crs:ParametricDarks>0</crs:ParametricDarks>
  <crs:ParametricHighlightSplit>75</crs:ParametricHighlightSplit>
  <crs:ParametricHighlights>0</crs:ParametricHighlights>
  <crs:ParametricLights>0</crs:ParametricLights>
  <crs:ParametricMidtoneSplit>50</crs:ParametricMidtoneSplit>
  <crs:ParametricShadowSplit>25</crs:ParametricShadowSplit>
  <crs:ParametricShadows>0</crs:ParametricShadows>
  <crs:PerspectiveAspect>0</crs:PerspectiveAspect>
  <crs:PerspectiveHorizontal>0</crs:PerspectiveHorizontal>
  <crs:PerspectiveRotate>0.0</crs:PerspectiveRotate>
  <crs:PerspectiveScale>100</crs:PerspectiveScale>
  <crs:PerspectiveUpright>0</crs:PerspectiveUpright>
  <crs:PerspectiveVertical>0</crs:PerspectiveVertical>
  <crs:PerspectiveX>0.00</crs:PerspectiveX>
  <crs:PerspectiveY>0.00</crs:PerspectiveY>
  <crs:PostCropVignetteAmount>0</crs:PostCropVignetteAmount>
  <crs:ProcessVersion>11.0</crs:ProcessVersion>
  <crs:RawFileName>IMG_0081.CR2</crs:RawFileName>
  <crs:RedHue>+9</crs:RedHue>
  <crs:RedSaturation>0</crs:RedSaturation>
  <crs:SaturationAdjustmentAqua>0</crs:SaturationAdjustmentAqua>
  <crs:SaturationAdjustmentBlue>0</crs:SaturationAdjustmentBlue>
  <crs:SaturationAdjustmentGreen>-32</crs:SaturationAdjustmentGreen>
  <crs:SaturationAdjustmentMagenta>0</crs:SaturationAdjustmentMagenta>
  <crs:SaturationAdjustmentOrange>0</crs:SaturationAdjustmentOrange>
  <crs:SaturationAdjustmentPurple>0</crs:SaturationAdjustmentPurple>
  <crs:SaturationAdjustmentRed>0</crs:SaturationAdjustmentRed>
  <crs:SaturationAdjustmentYellow>0</crs:SaturationAdjustmentYellow>
  <crs:ShadowTint>0</crs:ShadowTint>
  <crs:Shadows2012>0</crs:Shadows2012>
  <crs:SharpenDetail>25</crs:SharpenDetail>
  <crs:SharpenEdgeMasking>0</crs:SharpenEdgeMasking>
  <crs:SharpenRadius>+1.0</crs:SharpenRadius>
  <crs:SplitToningBalance>0</crs:SplitToningBalance>
  <crs:SplitToningHighlightHue>0</crs:SplitToningHighlightHue>
  <crs:SplitToningHighlightSaturation>0</crs:SplitToningHighlightSaturation>
  <crs:SplitToningShadowHue>0</crs:SplitToningShadowHue>
  <crs:SplitToningShadowSaturation>0</crs:SplitToningShadowSaturation>
  <crs:Temperature>5750</crs:Temperature>
  <crs:Tint>0</crs:Tint>
  <crs:ToneCurve>
   <rdf:Seq>
    <rdf:li>0, 0</rdf:li>
    <rdf:li>255, 255</rdf:li>
   </rdf:Seq>
  </crs:ToneCurve>
  <crs:ToneCurveBlue>
   <rdf:Seq>
    <rdf:li>0, 0</rdf:li>
    <rdf:li>255, 255</rdf:li>
   </rdf:Seq>
  </crs:ToneCurveBlue>
  <crs:ToneCurveGreen>
   <rdf:Seq>
    <rdf:li>0, 0</rdf:li>
    <rdf:li>255, 255</rdf:li>
   </rdf:Seq>
  </crs:ToneCurveGreen>
  <crs:ToneCurveName>Linear</crs:ToneCurveName>
  <crs:ToneCurveName2012>Custom</crs:ToneCurveName2012>
  <crs:ToneCurvePV2012>
   <rdf:Seq>
    <rdf:li>0, 26</rdf:li>
    <rdf:li>77, 54</rdf:li>
    <rdf:li>127, 125</rdf:li>
    <rdf:li>179, 195</rdf:li>
    <rdf:li>255, 255</rdf:li>
   </rdf:Seq>
  </crs:ToneCurvePV2012>
  <crs:ToneCurvePV2012Blue>
   <rdf:Seq>
    <rdf:li>0, 0</rdf:li>
    <rdf:li>255, 255</rdf:li>
   </rdf:Seq>
  </crs:ToneCurvePV2012Blue>
  <crs:ToneCurvePV2012Green>
   <rdf:Seq>
    <rdf:li>0, 0</rdf:li>
    <rdf:li>255, 255</rdf:li>
   </rdf:Seq>
  </crs:ToneCurvePV2012Green>
  <crs:ToneCurvePV2012Red>
   <rdf:Seq>
    <rdf:li>0, 0</rdf:li>
    <rdf:li>255, 255</rdf:li>
   </rdf:Seq>
  </crs:ToneCurvePV2012Red>
  <crs:ToneCurveRed>
   <rdf:Seq>
    <rdf:li>0, 0</rdf:li>
    <rdf:li>255, 255</rdf:li>
   </rdf:Seq>
  </crs:ToneCurveRed>
  <crs:ToneMapStrength>0</crs:ToneMapStrength>
  <crs:UprightCenterMode>0</crs:UprightCenterMode>
  <crs:UprightCenterNormX>0.5</crs:UprightCenterNormX>
  <crs:UprightCenterNormY>0.5</crs:UprightCenterNormY>
  <crs:UprightFocalLength35mm>35</crs:UprightFocalLength35mm>
  <crs:UprightFocalMode>0</crs:UprightFocalMode>
  <crs:UprightFourSegmentsCount>0</crs:UprightFourSegmentsCount>
  <crs:UprightPreview>False</crs:UprightPreview>
  <crs:UprightTransformCount>6</crs:UprightTransformCount>
  <crs:UprightVersion>151388160</crs:UprightVersion>
  <crs:Version>11.0</crs:Version>
  <crs:Vibrance>+20</crs:Vibrance>
  <crs:VignetteAmount>0</crs:VignetteAmount>
  <crs:Whites2012>0</crs:Whites2012>
 </rdf:Description>

 <rdf:Description rdf:about=''
  xmlns:dc='http://purl.org/dc/elements/1.1/'>
  <dc:creator>
   <rdf:Seq>
    <rdf:li/>
   </rdf:Seq>
  </dc:creator>
  <dc:description>
   <rdf:Alt>
    <rdf:li xml:lang='x-default'>orange fox walking on street</rdf:li>
   </rdf:Alt>
  </dc:description>
  <dc:format>image/jpeg</dc:format>
  <dc:rights>
   <rdf:Alt>
    <rdf:li xml:lang='x-default'>2014</rdf:li>
   </rdf:Alt>
  </dc:rights>
  <dc:subject>
   <rdf:Bag>
    <rdf:li>&quot;fuchs&quot;</rdf:li>
    <rdf:li>&lt;HALLO&gt;</rdf:li>
    <rdf:li>fox</rdf:li>
    <rdf:li>fuchs</rdf:li>
    <rdf:li>fuchs = &quot;süß&quot;</rdf:li>
    <rdf:li>süßer fuchs</rdf:li>
    <rdf:li>was solls</rdf:li>
   </rdf:Bag>
  </dc:subject>
  <dc:title>
   <rdf:Alt>
    <rdf:li xml:lang='x-default'/>
   </rdf:Alt>
  </dc:title>
 </rdf:Description>

 <rdf:Description rdf:about=''
  xmlns:exif='http://ns.adobe.com/exif/1.0/'>
  <exif:ApertureValue>2/1</exif:ApertureValue>
  <exif:ColorSpace>1</exif:ColorSpace>
  <exif:CustomRendered>0</exif:CustomRendered>
  <exif:DateTimeOriginal>2018-10-20T15:19:58</exif:DateTimeOriginal>
  <exif:ExifVersion>0230</exif:ExifVersion>
  <exif:ExposureBiasValue>0/1</exif:ExposureBiasValue>
  <exif:ExposureMode>1</exif:ExposureMode>
  <exif:ExposureProgram>1</exif:ExposureProgram>
  <exif:ExposureTime>1/200</exif:ExposureTime>
  <exif:FNumber>2/1</exif:FNumber>
  <exif:Flash rdf:parseType='Resource'>
   <exif:Fired>False</exif:Fired>
   <exif:Function>False</exif:Function>
   <exif:Mode>2</exif:Mode>
   <exif:RedEyeMode>False</exif:RedEyeMode>
   <exif:Return>0</exif:Return>
  </exif:Flash>
  <exif:FocalLength>100/1</exif:FocalLength>
  <exif:FocalPlaneResolutionUnit>3</exif:FocalPlaneResolutionUnit>
  <exif:FocalPlaneXResolution>1520/1</exif:FocalPlaneXResolution>
  <exif:FocalPlaneYResolution>1520/1</exif:FocalPlaneYResolution>
  <exif:ISOSpeedRatings>
   <rdf:Seq>
    <rdf:li>125</rdf:li>
   </rdf:Seq>
  </exif:ISOSpeedRatings>
  <exif:MaxApertureValue>2/1</exif:MaxApertureValue>
  <exif:MeteringMode>5</exif:MeteringMode>
  <exif:PixelXDimension>4390</exif:PixelXDimension>
  <exif:PixelYDimension>2927</exif:PixelYDimension>
  <exif:Saturation>1</exif:Saturation>
  <exif:SceneCaptureType>0</exif:SceneCaptureType>
  <exif:Sharpness>2</exif:Sharpness>
  <exif:ShutterSpeedValue>15303/2002</exif:ShutterSpeedValue>
  <exif:WhiteBalance>0</exif:WhiteBalance>
 </rdf:Description>

 <rdf:Description rdf:about=''
  xmlns:exifEX='http://cipa.jp/exif/1.0/'>
  <exifEX:BodySerialNumber>022123002072</exifEX:BodySerialNumber>
  <exifEX:LensModel>100mm</exifEX:LensModel>
  <exifEX:LensSerialNumber>0000000000</exifEX:LensSerialNumber>
  <exifEX:LensSpecification>
   <rdf:Seq>
    <rdf:li>100/1</rdf:li>
    <rdf:li>100/1</rdf:li>
    <rdf:li>0/0</rdf:li>
    <rdf:li>0/0</rdf:li>
   </rdf:Seq>
  </exifEX:LensSpecification>
  <exifEX:RecommendedExposureIndex>125</exifEX:RecommendedExposureIndex>
  <exifEX:SensitivityType>2</exifEX:SensitivityType>
 </rdf:Description>

 <rdf:Description rdf:about=''
  xmlns:mwg-rs='http://www.metadataworkinggroup.com/schemas/regions/'
  xmlns:stArea='http://ns.adobe.com/xmp/sType/Area#'
  xmlns:stDim='http://ns.adobe.com/xap/1.0/sType/Dimensions#'>
  <mwg-rs:Regions rdf:parseType='Resource'>
   <mwg-rs:AppliedToDimensions rdf:parseType='Resource'>
    <stDim:h>2927</stDim:h>
    <stDim:unit>pixel</stDim:unit>
    <stDim:w>4390</stDim:w>
   </mwg-rs:AppliedToDimensions>
   <mwg-rs:RegionList>
    <rdf:Bag>
     <rdf:li rdf:parseType='Resource'>
      <mwg-rs:Area rdf:parseType='Resource'>
       <stArea:h>0.240097</stArea:h>
       <stArea:unit>normalized</stArea:unit>
       <stArea:w>0.124503</stArea:w>
       <stArea:x>0.404336</stArea:x>
       <stArea:y>0.422313</stArea:y>
      </mwg-rs:Area>
      <mwg-rs:Description>mylio_face</mwg-rs:Description>
      <mwg-rs:Name>Swiper</mwg-rs:Name>
      <mwg-rs:Type>Face</mwg-rs:Type>
     </rdf:li>
    </rdf:Bag>
   </mwg-rs:RegionList>
  </mwg-rs:Regions>
 </rdf:Description>

 <rdf:Description rdf:about=''
  xmlns:pdf='http://ns.adobe.com/pdf/1.3/'>
  <pdf:Keywords>&quot;fuchs&quot;, &lt;HALLO&gt;, fox, fuchs, fuchs = &quot;süß&quot;, süßer fuchs, was solls</pdf:Keywords>
 </rdf:Description>

 <rdf:Description rdf:about=''
  xmlns:photoshop='http://ns.adobe.com/photoshop/1.0/'>
  <photoshop:DateCreated>2018-10-20</photoshop:DateCreated>
 </rdf:Description>

 <rdf:Description rdf:about=''
  xmlns:tiff='http://ns.adobe.com/tiff/1.0/'>
  <tiff:Artist/>
  <tiff:BitsPerSample>
   <rdf:Seq>
    <rdf:li>8</rdf:li>
   </rdf:Seq>
  </tiff:BitsPerSample>
  <tiff:Compression>6</tiff:Compression>
  <tiff:Copyright>
   <rdf:Alt>
    <rdf:li xml:lang='x-default'>2014</rdf:li>
   </rdf:Alt>
  </tiff:Copyright>
  <tiff:ImageDescription>
   <rdf:Alt>
    <rdf:li xml:lang='x-default'>orange fox walking on street</rdf:li>
   </rdf:Alt>
  </tiff:ImageDescription>
  <tiff:ImageLength>2927</tiff:ImageLength>
  <tiff:ImageWidth>4390</tiff:ImageWidth>
  <tiff:Make>Canon</tiff:Make>
  <tiff:Model>Canon EOS 6D</tiff:Model>
  <tiff:ResolutionUnit>2</tiff:ResolutionUnit>
  <tiff:Software>Adobe Photoshop Lightroom Classic 8.0 (Macintosh)</tiff:Software>
  <tiff:XResolution>72/1</tiff:XResolution>
  <tiff:YCbCrSubSampling>
   <rdf:Seq>
    <rdf:li>1</rdf:li>
    <rdf:li>1</rdf:li>
   </rdf:Seq>
  </tiff:YCbCrSubSampling>
  <tiff:YResolution>72/1</tiff:YResolution>
 </rdf:Description>

 <rdf:Description rdf:about=''
  xmlns:xmp='http://ns.adobe.com/xap/1.0/'>
  <xmp:CreateDate>2018-10-20T15:19:58</xmp:CreateDate>
  <xmp:CreatorTool>Adobe Photoshop Lightroom Classic 8.0 (Macintosh)</xmp:CreatorTool>
  <xmp:Label/>
  <xmp:MetadataDate>2023-03-24T09:30:39.600Z</xmp:MetadataDate>
  <xmp:ModifyDate>2018-10-20T15:19:58</xmp:ModifyDate>
  <xmp:Rating>3</xmp:Rating>
 </rdf:Description>

 <rdf:Description rdf:about=''
  xmlns:stEvt='http://ns.adobe.com/xap/1.0/sType/ResourceEvent#'
  xmlns:stRef='http://ns.adobe.com/xap/1.0/sType/ResourceRef#'
  xmlns:xmpMM='http://ns.adobe.com/xap/1.0/mm/'>
  <xmpMM:DerivedFrom rdf:parseType='Resource'>
   <stRef:documentID>0D1AECB577F991DDB109A54A11A712CC</stRef:documentID>
   <stRef:originalDocumentID>0D1AECB577F991DDB109A54A11A712CC</stRef:originalDocumentID>
  </xmpMM:DerivedFrom>
  <xmpMM:DocumentID>ABDEDC0D-076E-471C-9F54-172A6B331E9B</xmpMM:DocumentID>
  <xmpMM:History>
   <rdf:Seq>
    <rdf:li rdf:parseType='Resource'>
     <stEvt:action>derived</stEvt:action>
     <stEvt:parameters>converted from image/x-canon-cr2 to image/jpeg, saved to new location</stEvt:parameters>
    </rdf:li>
    <rdf:li rdf:parseType='Resource'>
     <stEvt:action>saved</stEvt:action>
     <stEvt:changed>/</stEvt:changed>
     <stEvt:instanceID>xmp.iid:56c6df46-c450-4a4f-a3fa-953b81fc65bf</stEvt:instanceID>
     <stEvt:softwareAgent>Adobe Photoshop Lightroom Classic 8.0 (Macintosh)</stEvt:softwareAgent>
     <stEvt:when>2019-03-04T15:08:58-03:30</stEvt:when>
    </rdf:li>
   </rdf:Seq>
  </xmpMM:History>
  <xmpMM:InstanceID>xmp.iid:7A2B77ED-D140-49DA-A311-E8FB2F824E10</xmpMM:InstanceID>
  <xmpMM:OriginalDocumentID>ABDEDC0D-076E-471C-9F54-172A6B331E9B</xmpMM:OriginalDocumentID>
 </rdf:Description>
</rdf:RDF>
</x:xmpmeta>
<?xpacket end='w'?>