src/commonTest/resources/com/ashampoo/kim/testdata/xmp/photo_4.xmp
<?xpacket begin='﻿' id='W5M0MpCehiHzreSzNTczkc9d'?>
<x:xmpmeta xmlns:x='adobe:ns:meta/' x:xmptk='Image::ExifTool 12.27'>
<rdf:RDF xmlns:rdf='http://www.w3.org/1999/02/22-rdf-syntax-ns#'>

 <rdf:Description rdf:about=''
  xmlns:aux='http://ns.adobe.com/exif/1.0/aux/'>
  <aux:ApproximateFocusDistance>67/100</aux:ApproximateFocusDistance>
  <aux:Firmware>1.1.5</aux:Firmware>
  <aux:FlashCompensation>0/1</aux:FlashCompensation>
  <aux:ImageNumber>0</aux:ImageNumber>
  <aux:LateralChromaticAberrationCorrectionAlreadyApplied>True</aux:LateralChromaticAberrationCorrectionAlreadyApplied>
  <aux:Lens>EF-S18-55mm f/3.5-5.6 IS STM</aux:Lens>
  <aux:LensID>4146</aux:LensID>
  <aux:LensInfo>18/1 55/1 0/0 0/0</aux:LensInfo>
  <aux:LensSerialNumber>0000070a01</aux:LensSerialNumber>
  <aux:SerialNumber>322034001175</aux:SerialNumber>
 </rdf:Description>

 <rdf:Description rdf:about=''
  xmlns:dc='http://purl.org/dc/elements/1.1/'>
  <dc:format>image/jpeg</dc:format>
 </rdf:Description>

 <rdf:Description rdf:about=''
  xmlns:exifEX='http://cipa.jp/exif/1.0/'>
  <exifEX:LensModel>EF-S18-55mm f/3.5-5.6 IS STM</exifEX:LensModel>
 </rdf:Description>

 <rdf:Description rdf:about=''
  xmlns:photoshop='http://ns.adobe.com/photoshop/1.0/'>
  <photoshop:DateCreated>2019-12-23T01:28:28.23</photoshop:DateCreated>
 </rdf:Description>

 <rdf:Description rdf:about=''
  xmlns:xmp='http://ns.adobe.com/xap/1.0/'>
  <xmp:CreateDate>2019-12-23T01:28:28.23</xmp:CreateDate>
  <xmp:CreatorTool>Adobe Photoshop Lightroom Classic 9.1 (Macintosh)</xmp:CreatorTool>
  <xmp:MetadataDate>2019-12-23T13:28:07-05:00</xmp:MetadataDate>
  <xmp:ModifyDate>2019-12-23T13:28:07-05:00</xmp:ModifyDate>
  <xmp:Rating>1</xmp:Rating>
 </rdf:Description>

 <rdf:Description rdf:about=''
  xmlns:stEvt='http://ns.adobe.com/xap/1.0/sType/ResourceEvent#'
  xmlns:stRef='http://ns.adobe.com/xap/1.0/sType/ResourceRef#'
  xmlns:xmpMM='http://ns.adobe.com/xap/1.0/mm/'>
  <xmpMM:DerivedFrom rdf:parseType='Resource'>
   <stRef:documentID>D749B1BD13ECB96B04E98B6E2C04E2ED</stRef:documentID>
   <stRef:originalDocumentID>D749B1BD13ECB96B04E98B6E2C04E2ED</stRef:originalDocumentID>
  </xmpMM:DerivedFrom>
  <xmpMM:DocumentID>xmp.did:61d558ea-ab7f-469a-8e30-064f02333d6c</xmpMM:DocumentID>
  <xmpMM:History>
   <rdf:Seq>
    <rdf:li rdf:parseType='Resource'>
     <stEvt:action>derived</stEvt:action>
     <stEvt:parameters>converted from image/x-canon-cr2 to image/jpeg, saved to new location</stEvt:parameters>
    </rdf:li>
    <rdf:li rdf:parseType='Resource'>
     <stEvt:action>saved</stEvt:action>
     <stEvt:changed>/</stEvt:changed>
     <stEvt:instanceID>xmp.iid:61d558ea-ab7f-469a-8e30-064f02333d6c</stEvt:instanceID>
     <stEvt:softwareAgent>Adobe Photoshop Lightroom Classic 9.1 (Macintosh)</stEvt:softwareAgent>
     <stEvt:when>2019-12-23T13:28:07-05:00</stEvt:when>
    </rdf:li>
   </rdf:Seq>
  </xmpMM:History>
  <xmpMM:InstanceID>xmp.iid:61d558ea-ab7f-469a-8e30-064f02333d6c</xmpMM:InstanceID>
  <xmpMM:OriginalDocumentID>D749B1BD13ECB96B04E98B6E2C04E2ED</xmpMM:OriginalDocumentID>
  <xmpMM:PreservedFileName>IMG_9499.CR2</xmpMM:PreservedFileName>
 </rdf:Description>

 <rdf:Description rdf:about=''
  xmlns:crs='http://ns.adobe.com/camera-raw-settings/1.0/'>
  <crs:AlreadyApplied>True</crs:AlreadyApplied>
  <crs:AutoLateralCA>1</crs:AutoLateralCA>
  <crs:Blacks2012>-9</crs:Blacks2012>
  <crs:BlueHue>-10</crs:BlueHue>
  <crs:BlueSaturation>-10</crs:BlueSaturation>
  <crs:CameraProfile>Adobe Standard</crs:CameraProfile>
  <crs:CameraProfileDigest>BA45C872F6A5D11497D00CBA08D5783F</crs:CameraProfileDigest>
  <crs:Clarity2012>0</crs:Clarity2012>
  <crs:ColorNoiseReduction>25</crs:ColorNoiseReduction>
  <crs:ColorNoiseReductionDetail>50</crs:ColorNoiseReductionDetail>
  <crs:ColorNoiseReductionSmoothness>50</crs:ColorNoiseReductionSmoothness>
  <crs:Contrast2012>-18</crs:Contrast2012>
  <crs:ConvertToGrayscale>False</crs:ConvertToGrayscale>
  <crs:DefringeGreenAmount>0</crs:DefringeGreenAmount>
  <crs:DefringeGreenHueHi>60</crs:DefringeGreenHueHi>
  <crs:DefringeGreenHueLo>40</crs:DefringeGreenHueLo>
  <crs:DefringePurpleAmount>0</crs:DefringePurpleAmount>
  <crs:DefringePurpleHueHi>70</crs:DefringePurpleHueHi>
  <crs:DefringePurpleHueLo>30</crs:DefringePurpleHueLo>
  <crs:Dehaze>0</crs:Dehaze>
  <crs:Exposure2012>+0.95</crs:Exposure2012>
  <crs:GrainAmount>22</crs:GrainAmount>
  <crs:GrainFrequency>50</crs:GrainFrequency>
  <crs:GrainSeed>3847824574</crs:GrainSeed>
  <crs:GrainSize>45</crs:GrainSize>
  <crs:GreenHue>+50</crs:GreenHue>
  <crs:GreenSaturation>-25</crs:GreenSaturation>
  <crs:HasCrop>False</crs:HasCrop>
  <crs:HasSettings>True</crs:HasSettings>
  <crs:Highlights2012>-94</crs:Highlights2012>
  <crs:HueAdjustmentAqua>0</crs:HueAdjustmentAqua>
  <crs:HueAdjustmentBlue>+2</crs:HueAdjustmentBlue>
  <crs:HueAdjustmentGreen>-10</crs:HueAdjustmentGreen>
  <crs:HueAdjustmentMagenta>0</crs:HueAdjustmentMagenta>
  <crs:HueAdjustmentOrange>-15</crs:HueAdjustmentOrange>
  <crs:HueAdjustmentPurple>0</crs:HueAdjustmentPurple>
  <crs:HueAdjustmentRed>-18</crs:HueAdjustmentRed>
  <crs:HueAdjustmentYellow>-9</crs:HueAdjustmentYellow>
  <crs:LensManualDistortionAmount>0</crs:LensManualDistortionAmount>
  <crs:LensProfileEnable>0</crs:LensProfileEnable>
  <crs:LensProfileSetup>LensDefaults</crs:LensProfileSetup>
  <crs:Look rdf:parseType='Resource'>
   <crs:Amount>1.000000</crs:Amount>
   <crs:Group>
    <rdf:Alt>
     <rdf:li xml:lang='x-default'>Profiles</rdf:li>
    </rdf:Alt>
   </crs:Group>
   <crs:Name>Adobe Color</crs:Name>
   <crs:Parameters rdf:parseType='Resource'>
    <crs:CameraProfile>Adobe Standard</crs:CameraProfile>
    <crs:ConvertToGrayscale>False</crs:ConvertToGrayscale>
    <crs:LookTable>E1095149FDB39D7A057BAB208837E2E1</crs:LookTable>
    <crs:ProcessVersion>11.0</crs:ProcessVersion>
    <crs:ToneCurvePV2012>
     <rdf:Seq>
      <rdf:li>0, 0</rdf:li>
      <rdf:li>22, 16</rdf:li>
      <rdf:li>40, 35</rdf:li>
      <rdf:li>127, 127</rdf:li>
      <rdf:li>224, 230</rdf:li>
      <rdf:li>240, 246</rdf:li>
      <rdf:li>255, 255</rdf:li>
     </rdf:Seq>
    </crs:ToneCurvePV2012>
    <crs:ToneCurvePV2012Blue>
     <rdf:Seq>
      <rdf:li>0, 0</rdf:li>
      <rdf:li>255, 255</rdf:li>
     </rdf:Seq>
    </crs:ToneCurvePV2012Blue>
    <crs:ToneCurvePV2012Green>
     <rdf:Seq>
      <rdf:li>0, 0</rdf:li>
      <rdf:li>255, 255</rdf:li>
     </rdf:Seq>
    </crs:ToneCurvePV2012Green>
    <crs:ToneCurvePV2012Red>
     <rdf:Seq>
      <rdf:li>0, 0</rdf:li>
      <rdf:li>255, 255</rdf:li>
     </rdf:Seq>
    </crs:ToneCurvePV2012Red>
    <crs:Version>12.1</crs:Version>
   </crs:Parameters>
   <crs:SupportsAmount>false</crs:SupportsAmount>
   <crs:SupportsMonochrome>false</crs:SupportsMonochrome>
   <crs:SupportsOutputReferred>false</crs:SupportsOutputReferred>
   <crs:UUID>B952C231111CD8E0ECCF14B86BAA7077</crs:UUID>
  </crs:Look>
  <crs:LuminanceAdjustmentAqua>0</crs:LuminanceAdjustmentAqua>
  <crs:LuminanceAdjustmentBlue>-70</crs:LuminanceAdjustmentBlue>
  <crs:LuminanceAdjustmentGreen>+17</crs:LuminanceAdjustmentGreen>
  <crs:LuminanceAdjustmentMagenta>0</crs:LuminanceAdjustmentMagenta>
  <crs:LuminanceAdjustmentOrange>-39</crs:LuminanceAdjustmentOrange>
  <crs:LuminanceAdjustmentPurple>0</crs:LuminanceAdjustmentPurple>
  <crs:LuminanceAdjustmentRed>-23</crs:LuminanceAdjustmentRed>
  <crs:LuminanceAdjustmentYellow>-21</crs:LuminanceAdjustmentYellow>
  <crs:LuminanceSmoothing>0</crs:LuminanceSmoothing>
  <crs:OverrideLookVignette>False</crs:OverrideLookVignette>
  <crs:ParametricDarks>0</crs:ParametricDarks>
  <crs:ParametricHighlightSplit>75</crs:ParametricHighlightSplit>
  <crs:ParametricHighlights>0</crs:ParametricHighlights>
  <crs:ParametricLights>0</crs:ParametricLights>
  <crs:ParametricMidtoneSplit>50</crs:ParametricMidtoneSplit>
  <crs:ParametricShadowSplit>25</crs:ParametricShadowSplit>
  <crs:ParametricShadows>0</crs:ParametricShadows>
  <crs:PerspectiveAspect>0</crs:PerspectiveAspect>
  <crs:PerspectiveHorizontal>0</crs:PerspectiveHorizontal>
  <crs:PerspectiveRotate>0.0</crs:PerspectiveRotate>
  <crs:PerspectiveScale>100</crs:PerspectiveScale>
  <crs:PerspectiveUpright>0</crs:PerspectiveUpright>
  <crs:PerspectiveVertical>0</crs:PerspectiveVertical>
  <crs:PerspectiveX>0.00</crs:PerspectiveX>
  <crs:PerspectiveY>0.00</crs:PerspectiveY>
  <crs:PostCropVignetteAmount>0</crs:PostCropVignetteAmount>
  <crs:ProcessVersion>11.0</crs:ProcessVersion>
  <crs:RawFileName>IMG_9499.CR2</crs:RawFileName>
  <crs:RedHue>+46</crs:RedHue>
  <crs:RedSaturation>+5</crs:RedSaturation>
  <crs:Saturation>-35</crs:Saturation>
  <crs:SaturationAdjustmentAqua>-51</crs:SaturationAdjustmentAqua>
  <crs:SaturationAdjustmentBlue>-19</crs:SaturationAdjustmentBlue>
  <crs:SaturationAdjustmentGreen>-17</crs:SaturationAdjustmentGreen>
  <crs:SaturationAdjustmentMagenta>0</crs:SaturationAdjustmentMagenta>
  <crs:SaturationAdjustmentOrange>+16</crs:SaturationAdjustmentOrange>
  <crs:SaturationAdjustmentPurple>0</crs:SaturationAdjustmentPurple>
  <crs:SaturationAdjustmentRed>+5</crs:SaturationAdjustmentRed>
  <crs:SaturationAdjustmentYellow>-15</crs:SaturationAdjustmentYellow>
  <crs:ShadowTint>0</crs:ShadowTint>
  <crs:Shadows2012>+55</crs:Shadows2012>
  <crs:SharpenDetail>25</crs:SharpenDetail>
  <crs:SharpenEdgeMasking>0</crs:SharpenEdgeMasking>
  <crs:SharpenRadius>+1.0</crs:SharpenRadius>
  <crs:Sharpness>35</crs:Sharpness>
  <crs:SplitToningBalance>0</crs:SplitToningBalance>
  <crs:SplitToningHighlightHue>34</crs:SplitToningHighlightHue>
  <crs:SplitToningHighlightSaturation>0</crs:SplitToningHighlightSaturation>
  <crs:SplitToningShadowHue>52</crs:SplitToningShadowHue>
  <crs:SplitToningShadowSaturation>20</crs:SplitToningShadowSaturation>
  <crs:Temperature>4659</crs:Temperature>
  <crs:Texture>0</crs:Texture>
  <crs:Tint>+14</crs:Tint>
  <crs:ToneCurve>
   <rdf:Seq>
    <rdf:li>0, 0</rdf:li>
    <rdf:li>255, 255</rdf:li>
   </rdf:Seq>
  </crs:ToneCurve>
  <crs:ToneCurveBlue>
   <rdf:Seq>
    <rdf:li>0, 0</rdf:li>
    <rdf:li>255, 255</rdf:li>
   </rdf:Seq>
  </crs:ToneCurveBlue>
  <crs:ToneCurveGreen>
   <rdf:Seq>
    <rdf:li>0, 0</rdf:li>
    <rdf:li>255, 255</rdf:li>
   </rdf:Seq>
  </crs:ToneCurveGreen>
  <crs:ToneCurveName>Linear</crs:ToneCurveName>
  <crs:ToneCurveName2012>Custom</crs:ToneCurveName2012>
  <crs:ToneCurvePV2012>
   <rdf:Seq>
    <rdf:li>0, 0</rdf:li>
    <rdf:li>59, 62</rdf:li>
    <rdf:li>177, 163</rdf:li>
    <rdf:li>255, 211</rdf:li>
   </rdf:Seq>
  </crs:ToneCurvePV2012>
  <crs:ToneCurvePV2012Blue>
   <rdf:Seq>
    <rdf:li>0, 0</rdf:li>
    <rdf:li>39, 13</rdf:li>
    <rdf:li>87, 65</rdf:li>
    <rdf:li>123, 124</rdf:li>
    <rdf:li>183, 199</rdf:li>
    <rdf:li>255, 255</rdf:li>
   </rdf:Seq>
  </crs:ToneCurvePV2012Blue>
  <crs:ToneCurvePV2012Green>
   <rdf:Seq>
    <rdf:li>0, 0</rdf:li>
    <rdf:li>40, 14</rdf:li>
    <rdf:li>83, 59</rdf:li>
    <rdf:li>123, 126</rdf:li>
    <rdf:li>172, 185</rdf:li>
    <rdf:li>255, 255</rdf:li>
   </rdf:Seq>
  </crs:ToneCurvePV2012Green>
  <crs:ToneCurvePV2012Red>
   <rdf:Seq>
    <rdf:li>0, 0</rdf:li>
    <rdf:li>40, 12</rdf:li>
    <rdf:li>84, 58</rdf:li>
    <rdf:li>123, 125</rdf:li>
    <rdf:li>186, 196</rdf:li>
    <rdf:li>255, 255</rdf:li>
   </rdf:Seq>
  </crs:ToneCurvePV2012Red>
  <crs:ToneCurveRed>
   <rdf:Seq>
    <rdf:li>0, 0</rdf:li>
    <rdf:li>255, 255</rdf:li>
   </rdf:Seq>
  </crs:ToneCurveRed>
  <crs:ToneMapStrength>0</crs:ToneMapStrength>
  <crs:UprightCenterMode>0</crs:UprightCenterMode>
  <crs:UprightCenterNormX>0.5</crs:UprightCenterNormX>
  <crs:UprightCenterNormY>0.5</crs:UprightCenterNormY>
  <crs:UprightFocalLength35mm>35</crs:UprightFocalLength35mm>
  <crs:UprightFocalMode>0</crs:UprightFocalMode>
  <crs:UprightFourSegmentsCount>0</crs:UprightFourSegmentsCount>
  <crs:UprightPreview>False</crs:UprightPreview>
  <crs:UprightTransformCount>6</crs:UprightTransformCount>
  <crs:UprightVersion>151388160</crs:UprightVersion>
  <crs:Version>12.1</crs:Version>
  <crs:Vibrance>-4</crs:Vibrance>
  <crs:VignetteAmount>0</crs:VignetteAmount>
  <crs:WhiteBalance>Custom</crs:WhiteBalance>
  <crs:Whites2012>-99</crs:Whites2012>
 </rdf:Description>
</rdf:RDF>
</x:xmpmeta>
                                                                                                    
                                                                                                    
                                                                                                    
                                                                                                    
                                                                                                    
                                                                                                    
                                                                                                    
                                                                                                    
                                                                                                    
                                                                                                    
                                                                                                    
                                                                                                    
                                                                                                    
                                                                                                    
                                                                                                    
                                                                                                    
                                                                                                    
                                                                                                    
                                                                                                    
                                                                                                    
                                                                                                    
                                                                                                    
                                                                                                    
                                                                                                    
<?xpacket end='w'?>