src/commonTest/resources/com/ashampoo/kim/testdata/xmp/photo_35.xmp
<?xpacket begin='﻿' id='W5M0MpCehiHzreSzNTczkc9d'?>
<x:xmpmeta xmlns:x='adobe:ns:meta/' x:xmptk='Image::ExifTool 12.27'>
<rdf:RDF xmlns:rdf='http://www.w3.org/1999/02/22-rdf-syntax-ns#'>

 <rdf:Description rdf:about=''
  xmlns:aux='http://ns.adobe.com/exif/1.0/aux/'>
  <aux:ApproximateFocusDistance>63/100</aux:ApproximateFocusDistance>
  <aux:DistortionCorrectionAlreadyApplied>True</aux:DistortionCorrectionAlreadyApplied>
  <aux:Firmware>1.0.2</aux:Firmware>
  <aux:FlashCompensation>0/1</aux:FlashCompensation>
  <aux:ImageNumber>0</aux:ImageNumber>
  <aux:LateralChromaticAberrationCorrectionAlreadyApplied>True</aux:LateralChromaticAberrationCorrectionAlreadyApplied>
  <aux:Lens>EF100mm f/2.8L Macro IS USM</aux:Lens>
  <aux:LensID>254</aux:LensID>
  <aux:LensInfo>100/1 100/1 0/0 0/0</aux:LensInfo>
  <aux:LensSerialNumber>000002e702</aux:LensSerialNumber>
  <aux:SerialNumber>043052000677</aux:SerialNumber>
  <aux:VignetteCorrectionAlreadyApplied>True</aux:VignetteCorrectionAlreadyApplied>
 </rdf:Description>

 <rdf:Description rdf:about=''
  xmlns:dc='http://purl.org/dc/elements/1.1/'>
  <dc:format>image/jpeg</dc:format>
 </rdf:Description>

 <rdf:Description rdf:about=''
  xmlns:exifEX='http://cipa.jp/exif/1.0/'>
  <exifEX:LensModel>EF100mm f/2.8L Macro IS USM</exifEX:LensModel>
 </rdf:Description>

 <rdf:Description rdf:about=''
  xmlns:photoshop='http://ns.adobe.com/photoshop/1.0/'>
  <photoshop:DateCreated>2018-12-12T17:11:15.89</photoshop:DateCreated>
 </rdf:Description>

 <rdf:Description rdf:about=''
  xmlns:xmp='http://ns.adobe.com/xap/1.0/'>
  <xmp:CreateDate>2018-12-12T17:11:15.89</xmp:CreateDate>
  <xmp:CreatorTool>Adobe Photoshop Lightroom Classic 8.1 (Windows)</xmp:CreatorTool>
  <xmp:MetadataDate>2019-01-12T20:37:50+01:00</xmp:MetadataDate>
  <xmp:ModifyDate>2019-01-12T20:37:50+01:00</xmp:ModifyDate>
  <xmp:Rating>5</xmp:Rating>
 </rdf:Description>

 <rdf:Description rdf:about=''
  xmlns:stEvt='http://ns.adobe.com/xap/1.0/sType/ResourceEvent#'
  xmlns:stRef='http://ns.adobe.com/xap/1.0/sType/ResourceRef#'
  xmlns:xmpMM='http://ns.adobe.com/xap/1.0/mm/'>
  <xmpMM:DerivedFrom rdf:parseType='Resource'>
   <stRef:documentID>A9EAC33A4A2953845B32B61730EBBD8F</stRef:documentID>
   <stRef:instanceID>xmp.iid:2e072152-2b28-49b6-a8df-b7704e92f189</stRef:instanceID>
   <stRef:originalDocumentID>A9EAC33A4A2953845B32B61730EBBD8F</stRef:originalDocumentID>
  </xmpMM:DerivedFrom>
  <xmpMM:DocumentID>xmp.did:81300372-d116-564c-b59e-b8f83ae6fd1c</xmpMM:DocumentID>
  <xmpMM:History>
   <rdf:Seq>
    <rdf:li rdf:parseType='Resource'>
     <stEvt:action>saved</stEvt:action>
     <stEvt:changed>/metadata</stEvt:changed>
     <stEvt:instanceID>xmp.iid:cf4a2997-e668-4776-a381-6d5d39127075</stEvt:instanceID>
     <stEvt:softwareAgent>Adobe Photoshop Camera Raw 11.0</stEvt:softwareAgent>
     <stEvt:when>2018-12-12T20:13:07-06:00</stEvt:when>
    </rdf:li>
    <rdf:li rdf:parseType='Resource'>
     <stEvt:action>saved</stEvt:action>
     <stEvt:changed>/metadata</stEvt:changed>
     <stEvt:instanceID>xmp.iid:2e072152-2b28-49b6-a8df-b7704e92f189</stEvt:instanceID>
     <stEvt:softwareAgent>Adobe Photoshop Camera Raw 11.0 (Macintosh)</stEvt:softwareAgent>
     <stEvt:when>2018-12-12T20:13:07-06:00</stEvt:when>
    </rdf:li>
    <rdf:li rdf:parseType='Resource'>
     <stEvt:action>derived</stEvt:action>
     <stEvt:parameters>converted from image/x-canon-cr2 to image/jpeg, saved to new location</stEvt:parameters>
    </rdf:li>
    <rdf:li rdf:parseType='Resource'>
     <stEvt:action>saved</stEvt:action>
     <stEvt:changed>/</stEvt:changed>
     <stEvt:instanceID>xmp.iid:81300372-d116-564c-b59e-b8f83ae6fd1c</stEvt:instanceID>
     <stEvt:softwareAgent>Adobe Photoshop Lightroom Classic 8.1 (Windows)</stEvt:softwareAgent>
     <stEvt:when>2019-01-12T20:37:50+01:00</stEvt:when>
    </rdf:li>
   </rdf:Seq>
  </xmpMM:History>
  <xmpMM:InstanceID>xmp.iid:81300372-d116-564c-b59e-b8f83ae6fd1c</xmpMM:InstanceID>
  <xmpMM:OriginalDocumentID>A9EAC33A4A2953845B32B61730EBBD8F</xmpMM:OriginalDocumentID>
 </rdf:Description>

 <rdf:Description rdf:about=''
  xmlns:crs='http://ns.adobe.com/camera-raw-settings/1.0/'>
  <crs:AlreadyApplied>True</crs:AlreadyApplied>
  <crs:AutoLateralCA>1</crs:AutoLateralCA>
  <crs:Blacks2012>-30</crs:Blacks2012>
  <crs:BlueHue>0</crs:BlueHue>
  <crs:BlueSaturation>0</crs:BlueSaturation>
  <crs:CameraProfile>Adobe Standard</crs:CameraProfile>
  <crs:CameraProfileDigest>661433344C8532AFA5A1E9091401E43C</crs:CameraProfileDigest>
  <crs:Clarity2012>+13</crs:Clarity2012>
  <crs:ColorNoiseReduction>25</crs:ColorNoiseReduction>
  <crs:ColorNoiseReductionDetail>50</crs:ColorNoiseReductionDetail>
  <crs:ColorNoiseReductionSmoothness>50</crs:ColorNoiseReductionSmoothness>
  <crs:Contrast2012>0</crs:Contrast2012>
  <crs:ConvertToGrayscale>False</crs:ConvertToGrayscale>
  <crs:CropAngle>0</crs:CropAngle>
  <crs:CropBottom>0.944778</crs:CropBottom>
  <crs:CropConstrainToWarp>0</crs:CropConstrainToWarp>
  <crs:CropLeft>0.1352</crs:CropLeft>
  <crs:CropRight>0.6384</crs:CropRight>
  <crs:CropTop>0.348139</crs:CropTop>
  <crs:DefringeGreenAmount>0</crs:DefringeGreenAmount>
  <crs:DefringeGreenHueHi>60</crs:DefringeGreenHueHi>
  <crs:DefringeGreenHueLo>40</crs:DefringeGreenHueLo>
  <crs:DefringePurpleAmount>0</crs:DefringePurpleAmount>
  <crs:DefringePurpleHueHi>70</crs:DefringePurpleHueHi>
  <crs:DefringePurpleHueLo>30</crs:DefringePurpleHueLo>
  <crs:Dehaze>0</crs:Dehaze>
  <crs:Exposure2012>+0.56</crs:Exposure2012>
  <crs:GrainAmount>0</crs:GrainAmount>
  <crs:GreenHue>0</crs:GreenHue>
  <crs:GreenSaturation>0</crs:GreenSaturation>
  <crs:HasCrop>True</crs:HasCrop>
  <crs:HasSettings>True</crs:HasSettings>
  <crs:Highlights2012>-52</crs:Highlights2012>
  <crs:HueAdjustmentAqua>+8</crs:HueAdjustmentAqua>
  <crs:HueAdjustmentBlue>+14</crs:HueAdjustmentBlue>
  <crs:HueAdjustmentGreen>0</crs:HueAdjustmentGreen>
  <crs:HueAdjustmentMagenta>0</crs:HueAdjustmentMagenta>
  <crs:HueAdjustmentOrange>0</crs:HueAdjustmentOrange>
  <crs:HueAdjustmentPurple>0</crs:HueAdjustmentPurple>
  <crs:HueAdjustmentRed>0</crs:HueAdjustmentRed>
  <crs:HueAdjustmentYellow>0</crs:HueAdjustmentYellow>
  <crs:LensManualDistortionAmount>0</crs:LensManualDistortionAmount>
  <crs:LensProfileChromaticAberrationScale>100</crs:LensProfileChromaticAberrationScale>
  <crs:LensProfileDigest>D67CEB30869BB47B1118D1BF99FA4AA5</crs:LensProfileDigest>
  <crs:LensProfileDistortionScale>100</crs:LensProfileDistortionScale>
  <crs:LensProfileEnable>1</crs:LensProfileEnable>
  <crs:LensProfileFilename>Canon EOS 5D Mark II (Canon EF 100mm f2.8 L Macro IS USM) - RAW.lcp</crs:LensProfileFilename>
  <crs:LensProfileName>Adobe (Canon EF 100mm f2.8 L Macro IS USM)</crs:LensProfileName>
  <crs:LensProfileSetup>LensDefaults</crs:LensProfileSetup>
  <crs:LensProfileVignettingScale>100</crs:LensProfileVignettingScale>
  <crs:Look rdf:parseType='Resource'>
   <crs:Name/>
  </crs:Look>
  <crs:LuminanceAdjustmentAqua>0</crs:LuminanceAdjustmentAqua>
  <crs:LuminanceAdjustmentBlue>0</crs:LuminanceAdjustmentBlue>
  <crs:LuminanceAdjustmentGreen>-14</crs:LuminanceAdjustmentGreen>
  <crs:LuminanceAdjustmentMagenta>0</crs:LuminanceAdjustmentMagenta>
  <crs:LuminanceAdjustmentOrange>0</crs:LuminanceAdjustmentOrange>
  <crs:LuminanceAdjustmentPurple>0</crs:LuminanceAdjustmentPurple>
  <crs:LuminanceAdjustmentRed>0</crs:LuminanceAdjustmentRed>
  <crs:LuminanceAdjustmentYellow>0</crs:LuminanceAdjustmentYellow>
  <crs:LuminanceNoiseReductionContrast>0</crs:LuminanceNoiseReductionContrast>
  <crs:LuminanceNoiseReductionDetail>50</crs:LuminanceNoiseReductionDetail>
  <crs:LuminanceSmoothing>14</crs:LuminanceSmoothing>
  <crs:OverrideLookVignette>False</crs:OverrideLookVignette>
  <crs:ParametricDarks>0</crs:ParametricDarks>
  <crs:ParametricHighlightSplit>75</crs:ParametricHighlightSplit>
  <crs:ParametricHighlights>0</crs:ParametricHighlights>
  <crs:ParametricLights>0</crs:ParametricLights>
  <crs:ParametricMidtoneSplit>50</crs:ParametricMidtoneSplit>
  <crs:ParametricShadowSplit>25</crs:ParametricShadowSplit>
  <crs:ParametricShadows>0</crs:ParametricShadows>
  <crs:PerspectiveAspect>0</crs:PerspectiveAspect>
  <crs:PerspectiveHorizontal>0</crs:PerspectiveHorizontal>
  <crs:PerspectiveRotate>0.0</crs:PerspectiveRotate>
  <crs:PerspectiveScale>100</crs:PerspectiveScale>
  <crs:PerspectiveUpright>0</crs:PerspectiveUpright>
  <crs:PerspectiveVertical>0</crs:PerspectiveVertical>
  <crs:PerspectiveX>0.00</crs:PerspectiveX>
  <crs:PerspectiveY>0.00</crs:PerspectiveY>
  <crs:PostCropVignetteAmount>0</crs:PostCropVignetteAmount>
  <crs:ProcessVersion>11.0</crs:ProcessVersion>
  <crs:RawFileName>_V7A8887.CR2</crs:RawFileName>
  <crs:RedHue>0</crs:RedHue>
  <crs:RedSaturation>0</crs:RedSaturation>
  <crs:Saturation>+20</crs:Saturation>
  <crs:SaturationAdjustmentAqua>+4</crs:SaturationAdjustmentAqua>
  <crs:SaturationAdjustmentBlue>+3</crs:SaturationAdjustmentBlue>
  <crs:SaturationAdjustmentGreen>+14</crs:SaturationAdjustmentGreen>
  <crs:SaturationAdjustmentMagenta>0</crs:SaturationAdjustmentMagenta>
  <crs:SaturationAdjustmentOrange>0</crs:SaturationAdjustmentOrange>
  <crs:SaturationAdjustmentPurple>0</crs:SaturationAdjustmentPurple>
  <crs:SaturationAdjustmentRed>0</crs:SaturationAdjustmentRed>
  <crs:SaturationAdjustmentYellow>-30</crs:SaturationAdjustmentYellow>
  <crs:ShadowTint>0</crs:ShadowTint>
  <crs:Shadows2012>+56</crs:Shadows2012>
  <crs:SharpenDetail>25</crs:SharpenDetail>
  <crs:SharpenEdgeMasking>51</crs:SharpenEdgeMasking>
  <crs:SharpenRadius>+1.0</crs:SharpenRadius>
  <crs:Sharpness>46</crs:Sharpness>
  <crs:SplitToningBalance>0</crs:SplitToningBalance>
  <crs:SplitToningHighlightHue>0</crs:SplitToningHighlightHue>
  <crs:SplitToningHighlightSaturation>0</crs:SplitToningHighlightSaturation>
  <crs:SplitToningShadowHue>0</crs:SplitToningShadowHue>
  <crs:SplitToningShadowSaturation>0</crs:SplitToningShadowSaturation>
  <crs:Temperature>5500</crs:Temperature>
  <crs:Tint>+10</crs:Tint>
  <crs:ToneCurve>
   <rdf:Seq>
    <rdf:li>0, 0</rdf:li>
    <rdf:li>255, 255</rdf:li>
   </rdf:Seq>
  </crs:ToneCurve>
  <crs:ToneCurveBlue>
   <rdf:Seq>
    <rdf:li>0, 0</rdf:li>
    <rdf:li>255, 255</rdf:li>
   </rdf:Seq>
  </crs:ToneCurveBlue>
  <crs:ToneCurveGreen>
   <rdf:Seq>
    <rdf:li>0, 0</rdf:li>
    <rdf:li>255, 255</rdf:li>
   </rdf:Seq>
  </crs:ToneCurveGreen>
  <crs:ToneCurveName>Linear</crs:ToneCurveName>
  <crs:ToneCurveName2012>Custom</crs:ToneCurveName2012>
  <crs:ToneCurvePV2012>
   <rdf:Seq>
    <rdf:li>0, 0</rdf:li>
    <rdf:li>78, 66</rdf:li>
    <rdf:li>199, 195</rdf:li>
    <rdf:li>255, 255</rdf:li>
   </rdf:Seq>
  </crs:ToneCurvePV2012>
  <crs:ToneCurvePV2012Blue>
   <rdf:Seq>
    <rdf:li>0, 0</rdf:li>
    <rdf:li>255, 255</rdf:li>
   </rdf:Seq>
  </crs:ToneCurvePV2012Blue>
  <crs:ToneCurvePV2012Green>
   <rdf:Seq>
    <rdf:li>0, 0</rdf:li>
    <rdf:li>255, 255</rdf:li>
   </rdf:Seq>
  </crs:ToneCurvePV2012Green>
  <crs:ToneCurvePV2012Red>
   <rdf:Seq>
    <rdf:li>0, 0</rdf:li>
    <rdf:li>255, 255</rdf:li>
   </rdf:Seq>
  </crs:ToneCurvePV2012Red>
  <crs:ToneCurveRed>
   <rdf:Seq>
    <rdf:li>0, 0</rdf:li>
    <rdf:li>255, 255</rdf:li>
   </rdf:Seq>
  </crs:ToneCurveRed>
  <crs:ToneMapStrength>0</crs:ToneMapStrength>
  <crs:UprightCenterMode>0</crs:UprightCenterMode>
  <crs:UprightCenterNormX>0.5</crs:UprightCenterNormX>
  <crs:UprightCenterNormY>0.5</crs:UprightCenterNormY>
  <crs:UprightFocalLength35mm>35</crs:UprightFocalLength35mm>
  <crs:UprightFocalMode>0</crs:UprightFocalMode>
  <crs:UprightFourSegmentsCount>0</crs:UprightFourSegmentsCount>
  <crs:UprightPreview>False</crs:UprightPreview>
  <crs:UprightTransformCount>6</crs:UprightTransformCount>
  <crs:UprightVersion>151388160</crs:UprightVersion>
  <crs:Version>11.1</crs:Version>
  <crs:Vibrance>+28</crs:Vibrance>
  <crs:VignetteAmount>0</crs:VignetteAmount>
  <crs:WhiteBalance>Daylight</crs:WhiteBalance>
  <crs:Whites2012>-1</crs:Whites2012>
 </rdf:Description>
</rdf:RDF>
</x:xmpmeta>
                                                                                                    
                                                                                                    
                                                                                                    
                                                                                                    
                                                                                                    
                                                                                                    
                                                                                                    
                                                                                                    
                                                                                                    
                                                                                                    
                                                                                                    
                                                                                                    
                                                                                                    
                                                                                                    
                                                                                                    
                                                                                                    
                                                                                                    
                                                                                                    
                                                                                                    
                                                                                                    
                                                                                                    
                                                                                                    
                                                                                                    
                                                                                                    
<?xpacket end='w'?>