src/commonTest/resources/com/ashampoo/kim/testdata/xmp/photo_16.xmp
<?xpacket begin='﻿' id='W5M0MpCehiHzreSzNTczkc9d'?>
<x:xmpmeta xmlns:x='adobe:ns:meta/' x:xmptk='Image::ExifTool 12.27'>
<rdf:RDF xmlns:rdf='http://www.w3.org/1999/02/22-rdf-syntax-ns#'>

 <rdf:Description rdf:about=''
  xmlns:aux='http://ns.adobe.com/exif/1.0/aux/'>
  <aux:ApproximateFocusDistance>231/100</aux:ApproximateFocusDistance>
  <aux:Firmware>1.2.1</aux:Firmware>
  <aux:FlashCompensation>0/1</aux:FlashCompensation>
  <aux:ImageNumber>0</aux:ImageNumber>
  <aux:Lens>EF100mm f/2.8L Macro IS USM</aux:Lens>
  <aux:LensID>254</aux:LensID>
  <aux:LensInfo>100/1 100/1 0/0 0/0</aux:LensInfo>
  <aux:LensSerialNumber>0000079489</aux:LensSerialNumber>
  <aux:SerialNumber>152028001073</aux:SerialNumber>
 </rdf:Description>

 <rdf:Description rdf:about=''
  xmlns:dc='http://purl.org/dc/elements/1.1/'>
  <dc:format>image/jpeg</dc:format>
 </rdf:Description>

 <rdf:Description rdf:about=''
  xmlns:exifEX='http://cipa.jp/exif/1.0/'>
  <exifEX:LensModel>EF100mm f/2.8L Macro IS USM</exifEX:LensModel>
 </rdf:Description>

 <rdf:Description rdf:about=''
  xmlns:photoshop='http://ns.adobe.com/photoshop/1.0/'>
  <photoshop:DateCreated>2018-12-10T11:50:52.82</photoshop:DateCreated>
 </rdf:Description>

 <rdf:Description rdf:about=''
  xmlns:xmp='http://ns.adobe.com/xap/1.0/'>
  <xmp:CreateDate>2018-12-10T11:50:52.82</xmp:CreateDate>
  <xmp:CreatorTool>Adobe Photoshop Lightroom Classic 8.0 (Macintosh)</xmp:CreatorTool>
  <xmp:MetadataDate>2018-12-15T19:42:58-05:00</xmp:MetadataDate>
  <xmp:ModifyDate>2018-12-15T19:42:58-05:00</xmp:ModifyDate>
  <xmp:Rating>2</xmp:Rating>
 </rdf:Description>

 <rdf:Description rdf:about=''
  xmlns:stEvt='http://ns.adobe.com/xap/1.0/sType/ResourceEvent#'
  xmlns:stRef='http://ns.adobe.com/xap/1.0/sType/ResourceRef#'
  xmlns:xmpMM='http://ns.adobe.com/xap/1.0/mm/'>
  <xmpMM:DerivedFrom rdf:parseType='Resource'>
   <stRef:documentID>59A0143D38A8DE402D6714C9B34AA0D7</stRef:documentID>
   <stRef:originalDocumentID>59A0143D38A8DE402D6714C9B34AA0D7</stRef:originalDocumentID>
  </xmpMM:DerivedFrom>
  <xmpMM:DocumentID>xmp.did:9adf2915-0e6f-44b1-8d9a-98f1ee410c6b</xmpMM:DocumentID>
  <xmpMM:History>
   <rdf:Seq>
    <rdf:li rdf:parseType='Resource'>
     <stEvt:action>derived</stEvt:action>
     <stEvt:parameters>converted from image/x-canon-cr2 to image/jpeg, saved to new location</stEvt:parameters>
    </rdf:li>
    <rdf:li rdf:parseType='Resource'>
     <stEvt:action>saved</stEvt:action>
     <stEvt:changed>/</stEvt:changed>
     <stEvt:instanceID>xmp.iid:9adf2915-0e6f-44b1-8d9a-98f1ee410c6b</stEvt:instanceID>
     <stEvt:softwareAgent>Adobe Photoshop Lightroom Classic 8.0 (Macintosh)</stEvt:softwareAgent>
     <stEvt:when>2018-12-15T19:42:58-05:00</stEvt:when>
    </rdf:li>
   </rdf:Seq>
  </xmpMM:History>
  <xmpMM:InstanceID>xmp.iid:9adf2915-0e6f-44b1-8d9a-98f1ee410c6b</xmpMM:InstanceID>
  <xmpMM:OriginalDocumentID>59A0143D38A8DE402D6714C9B34AA0D7</xmpMM:OriginalDocumentID>
 </rdf:Description>

 <rdf:Description rdf:about=''
  xmlns:crs='http://ns.adobe.com/camera-raw-settings/1.0/'>
  <crs:AlreadyApplied>True</crs:AlreadyApplied>
  <crs:AutoLateralCA>0</crs:AutoLateralCA>
  <crs:Blacks2012>0</crs:Blacks2012>
  <crs:BlueHue>0</crs:BlueHue>
  <crs:BlueSaturation>0</crs:BlueSaturation>
  <crs:CameraProfile>Adobe Standard</crs:CameraProfile>
  <crs:CameraProfileDigest>87FB0EDC503E332309FB5DE5C5C65125</crs:CameraProfileDigest>
  <crs:Clarity2012>+60</crs:Clarity2012>
  <crs:ColorNoiseReduction>25</crs:ColorNoiseReduction>
  <crs:ColorNoiseReductionDetail>50</crs:ColorNoiseReductionDetail>
  <crs:ColorNoiseReductionSmoothness>50</crs:ColorNoiseReductionSmoothness>
  <crs:Contrast2012>+20</crs:Contrast2012>
  <crs:ConvertToGrayscale>False</crs:ConvertToGrayscale>
  <crs:CropAngle>-14.7646</crs:CropAngle>
  <crs:CropBottom>0.782795</crs:CropBottom>
  <crs:CropConstrainToWarp>0</crs:CropConstrainToWarp>
  <crs:CropLeft>0.372586</crs:CropLeft>
  <crs:CropRight>0.835012</crs:CropRight>
  <crs:CropTop>0.268112</crs:CropTop>
  <crs:DefringeGreenAmount>0</crs:DefringeGreenAmount>
  <crs:DefringeGreenHueHi>60</crs:DefringeGreenHueHi>
  <crs:DefringeGreenHueLo>40</crs:DefringeGreenHueLo>
  <crs:DefringePurpleAmount>0</crs:DefringePurpleAmount>
  <crs:DefringePurpleHueHi>70</crs:DefringePurpleHueHi>
  <crs:DefringePurpleHueLo>30</crs:DefringePurpleHueLo>
  <crs:Dehaze>0</crs:Dehaze>
  <crs:Exposure2012>+0.10</crs:Exposure2012>
  <crs:GradientBasedCorrections>
   <rdf:Seq>
    <rdf:li rdf:parseType='Resource'>
     <crs:CorrectionActive>true</crs:CorrectionActive>
     <crs:CorrectionAmount>1.000000</crs:CorrectionAmount>
     <crs:CorrectionMasks>
      <rdf:Seq>
       <rdf:li rdf:parseType='Resource'>
        <crs:FullX>0.402607</crs:FullX>
        <crs:FullY>0.186808</crs:FullY>
        <crs:MaskValue>1.000000</crs:MaskValue>
        <crs:What>Mask/Gradient</crs:What>
        <crs:ZeroX>0.475708</crs:ZeroX>
        <crs:ZeroY>0.405867</crs:ZeroY>
       </rdf:li>
      </rdf:Seq>
     </crs:CorrectionMasks>
     <crs:CorrectionRangeMask rdf:parseType='Resource'>
      <crs:ColorAmount>0.500000</crs:ColorAmount>
      <crs:DepthFeather>0.500000</crs:DepthFeather>
      <crs:DepthMax>1.000000</crs:DepthMax>
      <crs:DepthMin>0.000000</crs:DepthMin>
      <crs:LumFeather>0.500000</crs:LumFeather>
      <crs:LumMax>1.000000</crs:LumMax>
      <crs:LumMin>0.000000</crs:LumMin>
      <crs:Type>0</crs:Type>
      <crs:Version>+2</crs:Version>
     </crs:CorrectionRangeMask>
     <crs:LocalBlacks2012>0.000000</crs:LocalBlacks2012>
     <crs:LocalBrightness>0.000000</crs:LocalBrightness>
     <crs:LocalClarity2012>0.000000</crs:LocalClarity2012>
     <crs:LocalContrast2012>0.000000</crs:LocalContrast2012>
     <crs:LocalDefringe>0.000000</crs:LocalDefringe>
     <crs:LocalDehaze>0.000000</crs:LocalDehaze>
     <crs:LocalExposure2012>0.233467</crs:LocalExposure2012>
     <crs:LocalHighlights2012>0.241733</crs:LocalHighlights2012>
     <crs:LocalLuminanceNoise>0.000000</crs:LocalLuminanceNoise>
     <crs:LocalMoire>0.000000</crs:LocalMoire>
     <crs:LocalSaturation>0.576971</crs:LocalSaturation>
     <crs:LocalShadows2012>0.000000</crs:LocalShadows2012>
     <crs:LocalSharpness>0.000000</crs:LocalSharpness>
     <crs:LocalTemperature>0.684684</crs:LocalTemperature>
     <crs:LocalTint>0.000000</crs:LocalTint>
     <crs:LocalToningHue>240.000000</crs:LocalToningHue>
     <crs:LocalToningSaturation>0.000000</crs:LocalToningSaturation>
     <crs:LocalWhites2012>0.777253</crs:LocalWhites2012>
     <crs:What>Correction</crs:What>
    </rdf:li>
   </rdf:Seq>
  </crs:GradientBasedCorrections>
  <crs:GrainAmount>23</crs:GrainAmount>
  <crs:GrainFrequency>50</crs:GrainFrequency>
  <crs:GrainSeed>739773875</crs:GrainSeed>
  <crs:GrainSize>25</crs:GrainSize>
  <crs:GreenHue>0</crs:GreenHue>
  <crs:GreenSaturation>0</crs:GreenSaturation>
  <crs:HasCrop>True</crs:HasCrop>
  <crs:HasSettings>True</crs:HasSettings>
  <crs:Highlights2012>-15</crs:Highlights2012>
  <crs:HueAdjustmentAqua>+20</crs:HueAdjustmentAqua>
  <crs:HueAdjustmentBlue>-5</crs:HueAdjustmentBlue>
  <crs:HueAdjustmentGreen>0</crs:HueAdjustmentGreen>
  <crs:HueAdjustmentMagenta>0</crs:HueAdjustmentMagenta>
  <crs:HueAdjustmentOrange>0</crs:HueAdjustmentOrange>
  <crs:HueAdjustmentPurple>0</crs:HueAdjustmentPurple>
  <crs:HueAdjustmentRed>0</crs:HueAdjustmentRed>
  <crs:HueAdjustmentYellow>0</crs:HueAdjustmentYellow>
  <crs:LensManualDistortionAmount>0</crs:LensManualDistortionAmount>
  <crs:LensProfileEnable>0</crs:LensProfileEnable>
  <crs:LensProfileSetup>LensDefaults</crs:LensProfileSetup>
  <crs:Look rdf:parseType='Resource'>
   <crs:Name/>
  </crs:Look>
  <crs:LuminanceAdjustmentAqua>+74</crs:LuminanceAdjustmentAqua>
  <crs:LuminanceAdjustmentBlue>+38</crs:LuminanceAdjustmentBlue>
  <crs:LuminanceAdjustmentGreen>+36</crs:LuminanceAdjustmentGreen>
  <crs:LuminanceAdjustmentMagenta>0</crs:LuminanceAdjustmentMagenta>
  <crs:LuminanceAdjustmentOrange>-22</crs:LuminanceAdjustmentOrange>
  <crs:LuminanceAdjustmentPurple>0</crs:LuminanceAdjustmentPurple>
  <crs:LuminanceAdjustmentRed>+20</crs:LuminanceAdjustmentRed>
  <crs:LuminanceAdjustmentYellow>0</crs:LuminanceAdjustmentYellow>
  <crs:LuminanceNoiseReductionContrast>0</crs:LuminanceNoiseReductionContrast>
  <crs:LuminanceNoiseReductionDetail>50</crs:LuminanceNoiseReductionDetail>
  <crs:LuminanceSmoothing>25</crs:LuminanceSmoothing>
  <crs:OverrideLookVignette>False</crs:OverrideLookVignette>
  <crs:ParametricDarks>0</crs:ParametricDarks>
  <crs:ParametricHighlightSplit>75</crs:ParametricHighlightSplit>
  <crs:ParametricHighlights>0</crs:ParametricHighlights>
  <crs:ParametricLights>0</crs:ParametricLights>
  <crs:ParametricMidtoneSplit>50</crs:ParametricMidtoneSplit>
  <crs:ParametricShadowSplit>25</crs:ParametricShadowSplit>
  <crs:ParametricShadows>0</crs:ParametricShadows>
  <crs:PerspectiveAspect>0</crs:PerspectiveAspect>
  <crs:PerspectiveHorizontal>0</crs:PerspectiveHorizontal>
  <crs:PerspectiveRotate>0.0</crs:PerspectiveRotate>
  <crs:PerspectiveScale>100</crs:PerspectiveScale>
  <crs:PerspectiveUpright>0</crs:PerspectiveUpright>
  <crs:PerspectiveVertical>0</crs:PerspectiveVertical>
  <crs:PerspectiveX>0.00</crs:PerspectiveX>
  <crs:PerspectiveY>0.00</crs:PerspectiveY>
  <crs:PostCropVignetteAmount>-25</crs:PostCropVignetteAmount>
  <crs:PostCropVignetteFeather>50</crs:PostCropVignetteFeather>
  <crs:PostCropVignetteHighlightContrast>0</crs:PostCropVignetteHighlightContrast>
  <crs:PostCropVignetteMidpoint>53</crs:PostCropVignetteMidpoint>
  <crs:PostCropVignetteRoundness>0</crs:PostCropVignetteRoundness>
  <crs:PostCropVignetteStyle>1</crs:PostCropVignetteStyle>
  <crs:ProcessVersion>11.0</crs:ProcessVersion>
  <crs:RawFileName>_Z3A0583.CR2</crs:RawFileName>
  <crs:RedHue>0</crs:RedHue>
  <crs:RedSaturation>0</crs:RedSaturation>
  <crs:Saturation>+10</crs:Saturation>
  <crs:SaturationAdjustmentAqua>0</crs:SaturationAdjustmentAqua>
  <crs:SaturationAdjustmentBlue>0</crs:SaturationAdjustmentBlue>
  <crs:SaturationAdjustmentGreen>0</crs:SaturationAdjustmentGreen>
  <crs:SaturationAdjustmentMagenta>0</crs:SaturationAdjustmentMagenta>
  <crs:SaturationAdjustmentOrange>0</crs:SaturationAdjustmentOrange>
  <crs:SaturationAdjustmentPurple>0</crs:SaturationAdjustmentPurple>
  <crs:SaturationAdjustmentRed>0</crs:SaturationAdjustmentRed>
  <crs:SaturationAdjustmentYellow>+44</crs:SaturationAdjustmentYellow>
  <crs:ShadowTint>0</crs:ShadowTint>
  <crs:Shadows2012>+20</crs:Shadows2012>
  <crs:SharpenDetail>25</crs:SharpenDetail>
  <crs:SharpenEdgeMasking>0</crs:SharpenEdgeMasking>
  <crs:SharpenRadius>+1.0</crs:SharpenRadius>
  <crs:Sharpness>75</crs:Sharpness>
  <crs:SplitToningBalance>0</crs:SplitToningBalance>
  <crs:SplitToningHighlightHue>0</crs:SplitToningHighlightHue>
  <crs:SplitToningHighlightSaturation>0</crs:SplitToningHighlightSaturation>
  <crs:SplitToningShadowHue>0</crs:SplitToningShadowHue>
  <crs:SplitToningShadowSaturation>0</crs:SplitToningShadowSaturation>
  <crs:Temperature>4250</crs:Temperature>
  <crs:Tint>+6</crs:Tint>
  <crs:ToneCurve>
   <rdf:Seq>
    <rdf:li>0, 0</rdf:li>
    <rdf:li>255, 255</rdf:li>
   </rdf:Seq>
  </crs:ToneCurve>
  <crs:ToneCurveBlue>
   <rdf:Seq>
    <rdf:li>0, 0</rdf:li>
    <rdf:li>255, 255</rdf:li>
   </rdf:Seq>
  </crs:ToneCurveBlue>
  <crs:ToneCurveGreen>
   <rdf:Seq>
    <rdf:li>0, 0</rdf:li>
    <rdf:li>255, 255</rdf:li>
   </rdf:Seq>
  </crs:ToneCurveGreen>
  <crs:ToneCurveName>Linear</crs:ToneCurveName>
  <crs:ToneCurveName2012>Custom</crs:ToneCurveName2012>
  <crs:ToneCurvePV2012>
   <rdf:Seq>
    <rdf:li>0, 18</rdf:li>
    <rdf:li>63, 55</rdf:li>
    <rdf:li>130, 133</rdf:li>
    <rdf:li>187, 190</rdf:li>
    <rdf:li>255, 255</rdf:li>
   </rdf:Seq>
  </crs:ToneCurvePV2012>
  <crs:ToneCurvePV2012Blue>
   <rdf:Seq>
    <rdf:li>0, 0</rdf:li>
    <rdf:li>255, 255</rdf:li>
   </rdf:Seq>
  </crs:ToneCurvePV2012Blue>
  <crs:ToneCurvePV2012Green>
   <rdf:Seq>
    <rdf:li>0, 0</rdf:li>
    <rdf:li>255, 255</rdf:li>
   </rdf:Seq>
  </crs:ToneCurvePV2012Green>
  <crs:ToneCurvePV2012Red>
   <rdf:Seq>
    <rdf:li>0, 0</rdf:li>
    <rdf:li>255, 255</rdf:li>
   </rdf:Seq>
  </crs:ToneCurvePV2012Red>
  <crs:ToneCurveRed>
   <rdf:Seq>
    <rdf:li>0, 0</rdf:li>
    <rdf:li>255, 255</rdf:li>
   </rdf:Seq>
  </crs:ToneCurveRed>
  <crs:ToneMapStrength>0</crs:ToneMapStrength>
  <crs:UprightCenterMode>0</crs:UprightCenterMode>
  <crs:UprightCenterNormX>0.5</crs:UprightCenterNormX>
  <crs:UprightCenterNormY>0.5</crs:UprightCenterNormY>
  <crs:UprightFocalLength35mm>35</crs:UprightFocalLength35mm>
  <crs:UprightFocalMode>0</crs:UprightFocalMode>
  <crs:UprightFourSegmentsCount>0</crs:UprightFourSegmentsCount>
  <crs:UprightPreview>False</crs:UprightPreview>
  <crs:UprightTransformCount>6</crs:UprightTransformCount>
  <crs:UprightVersion>151388160</crs:UprightVersion>
  <crs:Version>11.0</crs:Version>
  <crs:Vibrance>+64</crs:Vibrance>
  <crs:VignetteAmount>0</crs:VignetteAmount>
  <crs:WhiteBalance>As Shot</crs:WhiteBalance>
  <crs:Whites2012>+10</crs:Whites2012>
 </rdf:Description>
</rdf:RDF>
</x:xmpmeta>
                                                                                                    
                                                                                                    
                                                                                                    
                                                                                                    
                                                                                                    
                                                                                                    
                                                                                                    
                                                                                                    
                                                                                                    
                                                                                                    
                                                                                                    
                                                                                                    
                                                                                                    
                                                                                                    
                                                                                                    
                                                                                                    
                                                                                                    
                                                                                                    
                                                                                                    
                                                                                                    
                                                                                                    
                                                                                                    
                                                                                                    
                                                                                                    
<?xpacket end='w'?>