src/commonTest/resources/com/ashampoo/kim/testdata/xmp/photo_9.xmp
<?xpacket begin='﻿' id='W5M0MpCehiHzreSzNTczkc9d'?>
<x:xmpmeta xmlns:x='adobe:ns:meta/' x:xmptk='Image::ExifTool 12.27'>
<rdf:RDF xmlns:rdf='http://www.w3.org/1999/02/22-rdf-syntax-ns#'>

 <rdf:Description rdf:about=''
  xmlns:MicrosoftPhoto='http://ns.microsoft.com/photo/1.0'>
  <MicrosoftPhoto:LastKeywordXMP>
   <rdf:Bag>
    <rdf:li>adorable</rdf:li>
    <rdf:li>animal</rdf:li>
    <rdf:li>attentive</rdf:li>
    <rdf:li>beak</rdf:li>
    <rdf:li>beautiful</rdf:li>
    <rdf:li>bird</rdf:li>
    <rdf:li>blue</rdf:li>
    <rdf:li>color</rdf:li>
    <rdf:li>colorful</rdf:li>
    <rdf:li>colours</rdf:li>
    <rdf:li>cute</rdf:li>
    <rdf:li>eye</rdf:li>
    <rdf:li>feather</rdf:li>
    <rdf:li>green</rdf:li>
    <rdf:li>isolated</rdf:li>
    <rdf:li>lorikeet</rdf:li>
    <rdf:li>lory</rdf:li>
    <rdf:li>love</rdf:li>
    <rdf:li>multi-coloured</rdf:li>
    <rdf:li>nature</rdf:li>
    <rdf:li>outdoors</rdf:li>
    <rdf:li>parakeet</rdf:li>
    <rdf:li>park</rdf:li>
    <rdf:li>parrot</rdf:li>
    <rdf:li>pet</rdf:li>
    <rdf:li>portrait</rdf:li>
    <rdf:li>purple</rdf:li>
    <rdf:li>rainbow</rdf:li>
    <rdf:li>rainbow-coloured</rdf:li>
    <rdf:li>red</rdf:li>
    <rdf:li>species</rdf:li>
    <rdf:li>tropical</rdf:li>
    <rdf:li>wild</rdf:li>
    <rdf:li>wildlife</rdf:li>
    <rdf:li>yellow</rdf:li>
    <rdf:li>feathers</rdf:li>
    <rdf:li>detail</rdf:li>
   </rdf:Bag>
  </MicrosoftPhoto:LastKeywordXMP>
 </rdf:Description>

 <rdf:Description rdf:about=''
  xmlns:aux='http://ns.adobe.com/exif/1.0/aux/'>
  <aux:ApproximateFocusDistance>202/100</aux:ApproximateFocusDistance>
  <aux:DistortionCorrectionAlreadyApplied>True</aux:DistortionCorrectionAlreadyApplied>
  <aux:Firmware>1.0.2</aux:Firmware>
  <aux:FlashCompensation>0/1</aux:FlashCompensation>
  <aux:ImageNumber>0</aux:ImageNumber>
  <aux:LateralChromaticAberrationCorrectionAlreadyApplied>True</aux:LateralChromaticAberrationCorrectionAlreadyApplied>
  <aux:Lens>EF300mm f/2.8L IS II USM</aux:Lens>
  <aux:LensID>491</aux:LensID>
  <aux:LensInfo>300/1 300/1 0/0 0/0</aux:LensInfo>
  <aux:LensSerialNumber>4250000105</aux:LensSerialNumber>
  <aux:SerialNumber>043052000677</aux:SerialNumber>
  <aux:VignetteCorrectionAlreadyApplied>True</aux:VignetteCorrectionAlreadyApplied>
 </rdf:Description>

 <rdf:Description rdf:about=''
  xmlns:dc='http://purl.org/dc/elements/1.1/'>
  <dc:description>
   <rdf:Alt>
    <rdf:li>Rainbow Lorikeet Parrot - a very brightly colored parrot</rdf:li>
   </rdf:Alt>
  </dc:description>
  <dc:format>image/jpeg</dc:format>
  <dc:subject>
   <rdf:Alt>
    <rdf:li>adorable</rdf:li>
    <rdf:li>animal</rdf:li>
    <rdf:li>attentive</rdf:li>
    <rdf:li>beak</rdf:li>
    <rdf:li>beautiful</rdf:li>
    <rdf:li>bird</rdf:li>
    <rdf:li>blue</rdf:li>
    <rdf:li>color</rdf:li>
    <rdf:li>colorful</rdf:li>
    <rdf:li>colours</rdf:li>
    <rdf:li>cute</rdf:li>
    <rdf:li>eye</rdf:li>
    <rdf:li>feather</rdf:li>
    <rdf:li>green</rdf:li>
    <rdf:li>isolated</rdf:li>
    <rdf:li>lorikeet</rdf:li>
    <rdf:li>lory</rdf:li>
    <rdf:li>love</rdf:li>
    <rdf:li>multi-coloured</rdf:li>
    <rdf:li>nature</rdf:li>
    <rdf:li>outdoors</rdf:li>
    <rdf:li>parakeet</rdf:li>
    <rdf:li>park</rdf:li>
    <rdf:li>parrot</rdf:li>
    <rdf:li>pet</rdf:li>
    <rdf:li>portrait</rdf:li>
    <rdf:li>purple</rdf:li>
    <rdf:li>rainbow</rdf:li>
    <rdf:li>rainbow-coloured</rdf:li>
    <rdf:li>red</rdf:li>
    <rdf:li>species</rdf:li>
    <rdf:li>tropical</rdf:li>
    <rdf:li>wild</rdf:li>
    <rdf:li>wildlife</rdf:li>
    <rdf:li>yellow</rdf:li>
    <rdf:li>feathers</rdf:li>
    <rdf:li>detail</rdf:li>
   </rdf:Alt>
  </dc:subject>
  <dc:title>
   <rdf:Alt>
    <rdf:li>Rainbow Lorikeet Parrot</rdf:li>
   </rdf:Alt>
  </dc:title>
 </rdf:Description>

 <rdf:Description rdf:about=''
  xmlns:exifEX='http://cipa.jp/exif/1.0/'>
  <exifEX:LensModel>EF300mm f/2.8L IS II USM</exifEX:LensModel>
 </rdf:Description>

 <rdf:Description rdf:about=''
  xmlns:photoshop='http://ns.adobe.com/photoshop/1.0/'>
  <photoshop:DateCreated>2019-02-26T13:19:46.33</photoshop:DateCreated>
  <photoshop:Headline>
   <rdf:Alt>
    <rdf:li>Rainbow Lorikeet Parrot</rdf:li>
   </rdf:Alt>
  </photoshop:Headline>
 </rdf:Description>

 <rdf:Description rdf:about=''
  xmlns:xmp='http://ns.adobe.com/xap/1.0/'>
  <xmp:CreateDate>2019-02-26T13:19:46.33</xmp:CreateDate>
  <xmp:CreatorTool>Adobe Photoshop Lightroom Classic 8.2 (Windows)</xmp:CreatorTool>
  <xmp:MetadataDate>2019-03-29T14:44:08+01:00</xmp:MetadataDate>
  <xmp:ModifyDate>2019-03-29T14:44:08+01:00</xmp:ModifyDate>
  <xmp:Rating>3</xmp:Rating>
 </rdf:Description>

 <rdf:Description rdf:about=''
  xmlns:stEvt='http://ns.adobe.com/xap/1.0/sType/ResourceEvent#'
  xmlns:stRef='http://ns.adobe.com/xap/1.0/sType/ResourceRef#'
  xmlns:xmpMM='http://ns.adobe.com/xap/1.0/mm/'>
  <xmpMM:DerivedFrom rdf:parseType='Resource'>
   <stRef:documentID>687A5B3E7FDFF11D9B07C9993F6428F7</stRef:documentID>
   <stRef:instanceID>xmp.iid:159df143-ba6f-2f48-8e51-4aef9439dacc</stRef:instanceID>
   <stRef:originalDocumentID>687A5B3E7FDFF11D9B07C9993F6428F7</stRef:originalDocumentID>
  </xmpMM:DerivedFrom>
  <xmpMM:DocumentID>xmp.did:a7f214ae-e779-6743-8307-7b8d7ec3fee1</xmpMM:DocumentID>
  <xmpMM:History>
   <rdf:Seq>
    <rdf:li rdf:parseType='Resource'>
     <stEvt:action>saved</stEvt:action>
     <stEvt:changed>/metadata</stEvt:changed>
     <stEvt:instanceID>xmp.iid:34067ec5-6944-6f47-90ed-0a8d9738d608</stEvt:instanceID>
     <stEvt:softwareAgent>Adobe Photoshop Camera Raw 11.2</stEvt:softwareAgent>
     <stEvt:when>2019-02-26T20:19:11+01:00</stEvt:when>
    </rdf:li>
    <rdf:li rdf:parseType='Resource'>
     <stEvt:action>saved</stEvt:action>
     <stEvt:changed>/metadata</stEvt:changed>
     <stEvt:instanceID>xmp.iid:159df143-ba6f-2f48-8e51-4aef9439dacc</stEvt:instanceID>
     <stEvt:softwareAgent>Adobe Photoshop Camera Raw 11.2 (Windows)</stEvt:softwareAgent>
     <stEvt:when>2019-02-26T20:19:11+01:00</stEvt:when>
    </rdf:li>
    <rdf:li rdf:parseType='Resource'>
     <stEvt:action>derived</stEvt:action>
     <stEvt:parameters>converted from image/x-canon-cr2 to image/jpeg, saved to new location</stEvt:parameters>
    </rdf:li>
    <rdf:li rdf:parseType='Resource'>
     <stEvt:action>saved</stEvt:action>
     <stEvt:changed>/</stEvt:changed>
     <stEvt:instanceID>xmp.iid:a7f214ae-e779-6743-8307-7b8d7ec3fee1</stEvt:instanceID>
     <stEvt:softwareAgent>Adobe Photoshop Lightroom Classic 8.2 (Windows)</stEvt:softwareAgent>
     <stEvt:when>2019-03-29T14:44:08+01:00</stEvt:when>
    </rdf:li>
   </rdf:Seq>
  </xmpMM:History>
  <xmpMM:InstanceID>xmp.iid:a7f214ae-e779-6743-8307-7b8d7ec3fee1</xmpMM:InstanceID>
  <xmpMM:OriginalDocumentID>687A5B3E7FDFF11D9B07C9993F6428F7</xmpMM:OriginalDocumentID>
 </rdf:Description>

 <rdf:Description rdf:about=''
  xmlns:crs='http://ns.adobe.com/camera-raw-settings/1.0/'>
  <crs:AlreadyApplied>True</crs:AlreadyApplied>
  <crs:AutoLateralCA>1</crs:AutoLateralCA>
  <crs:Blacks2012>-40</crs:Blacks2012>
  <crs:BlueHue>0</crs:BlueHue>
  <crs:BlueSaturation>0</crs:BlueSaturation>
  <crs:CameraProfile>Adobe Standard</crs:CameraProfile>
  <crs:CameraProfileDigest>661433344C8532AFA5A1E9091401E43C</crs:CameraProfileDigest>
  <crs:Clarity2012>+33</crs:Clarity2012>
  <crs:ColorNoiseReduction>25</crs:ColorNoiseReduction>
  <crs:ColorNoiseReductionDetail>50</crs:ColorNoiseReductionDetail>
  <crs:ColorNoiseReductionSmoothness>50</crs:ColorNoiseReductionSmoothness>
  <crs:Contrast2012>0</crs:Contrast2012>
  <crs:ConvertToGrayscale>False</crs:ConvertToGrayscale>
  <crs:CropAngle>0</crs:CropAngle>
  <crs:CropBottom>0.996399</crs:CropBottom>
  <crs:CropConstrainToWarp>0</crs:CropConstrainToWarp>
  <crs:CropLeft>0.02</crs:CropLeft>
  <crs:CropRight>0.904754</crs:CropRight>
  <crs:CropTop>0.111645</crs:CropTop>
  <crs:DefringeGreenAmount>0</crs:DefringeGreenAmount>
  <crs:DefringeGreenHueHi>60</crs:DefringeGreenHueHi>
  <crs:DefringeGreenHueLo>40</crs:DefringeGreenHueLo>
  <crs:DefringePurpleAmount>0</crs:DefringePurpleAmount>
  <crs:DefringePurpleHueHi>70</crs:DefringePurpleHueHi>
  <crs:DefringePurpleHueLo>30</crs:DefringePurpleHueLo>
  <crs:Dehaze>0</crs:Dehaze>
  <crs:Exposure2012>+0.14</crs:Exposure2012>
  <crs:GrainAmount>0</crs:GrainAmount>
  <crs:GreenHue>0</crs:GreenHue>
  <crs:GreenSaturation>0</crs:GreenSaturation>
  <crs:HasCrop>True</crs:HasCrop>
  <crs:HasSettings>True</crs:HasSettings>
  <crs:Highlights2012>-85</crs:Highlights2012>
  <crs:HueAdjustmentAqua>+8</crs:HueAdjustmentAqua>
  <crs:HueAdjustmentBlue>+14</crs:HueAdjustmentBlue>
  <crs:HueAdjustmentGreen>0</crs:HueAdjustmentGreen>
  <crs:HueAdjustmentMagenta>0</crs:HueAdjustmentMagenta>
  <crs:HueAdjustmentOrange>0</crs:HueAdjustmentOrange>
  <crs:HueAdjustmentPurple>0</crs:HueAdjustmentPurple>
  <crs:HueAdjustmentRed>0</crs:HueAdjustmentRed>
  <crs:HueAdjustmentYellow>0</crs:HueAdjustmentYellow>
  <crs:LensManualDistortionAmount>0</crs:LensManualDistortionAmount>
  <crs:LensProfileChromaticAberrationScale>100</crs:LensProfileChromaticAberrationScale>
  <crs:LensProfileDigest>94C1E93C14C53105E14C921B38A367FE</crs:LensProfileDigest>
  <crs:LensProfileDistortionScale>100</crs:LensProfileDistortionScale>
  <crs:LensProfileEnable>1</crs:LensProfileEnable>
  <crs:LensProfileFilename>Canon EOS-1Ds Mark III (Canon EF 300mm f2.8L IS II USM) - RAW.lcp</crs:LensProfileFilename>
  <crs:LensProfileName>Adobe (Canon EF 300mm f/2.8L IS II USM)</crs:LensProfileName>
  <crs:LensProfileSetup>LensDefaults</crs:LensProfileSetup>
  <crs:LensProfileVignettingScale>100</crs:LensProfileVignettingScale>
  <crs:Look rdf:parseType='Resource'>
   <crs:Name/>
  </crs:Look>
  <crs:LuminanceAdjustmentAqua>0</crs:LuminanceAdjustmentAqua>
  <crs:LuminanceAdjustmentBlue>0</crs:LuminanceAdjustmentBlue>
  <crs:LuminanceAdjustmentGreen>0</crs:LuminanceAdjustmentGreen>
  <crs:LuminanceAdjustmentMagenta>0</crs:LuminanceAdjustmentMagenta>
  <crs:LuminanceAdjustmentOrange>0</crs:LuminanceAdjustmentOrange>
  <crs:LuminanceAdjustmentPurple>0</crs:LuminanceAdjustmentPurple>
  <crs:LuminanceAdjustmentRed>0</crs:LuminanceAdjustmentRed>
  <crs:LuminanceAdjustmentYellow>0</crs:LuminanceAdjustmentYellow>
  <crs:LuminanceNoiseReductionContrast>0</crs:LuminanceNoiseReductionContrast>
  <crs:LuminanceNoiseReductionDetail>50</crs:LuminanceNoiseReductionDetail>
  <crs:LuminanceSmoothing>14</crs:LuminanceSmoothing>
  <crs:OverrideLookVignette>False</crs:OverrideLookVignette>
  <crs:ParametricDarks>0</crs:ParametricDarks>
  <crs:ParametricHighlightSplit>75</crs:ParametricHighlightSplit>
  <crs:ParametricHighlights>0</crs:ParametricHighlights>
  <crs:ParametricLights>0</crs:ParametricLights>
  <crs:ParametricMidtoneSplit>50</crs:ParametricMidtoneSplit>
  <crs:ParametricShadowSplit>25</crs:ParametricShadowSplit>
  <crs:ParametricShadows>0</crs:ParametricShadows>
  <crs:PerspectiveAspect>0</crs:PerspectiveAspect>
  <crs:PerspectiveHorizontal>0</crs:PerspectiveHorizontal>
  <crs:PerspectiveRotate>0.0</crs:PerspectiveRotate>
  <crs:PerspectiveScale>100</crs:PerspectiveScale>
  <crs:PerspectiveUpright>0</crs:PerspectiveUpright>
  <crs:PerspectiveVertical>0</crs:PerspectiveVertical>
  <crs:PerspectiveX>0.00</crs:PerspectiveX>
  <crs:PerspectiveY>0.00</crs:PerspectiveY>
  <crs:PostCropVignetteAmount>0</crs:PostCropVignetteAmount>
  <crs:ProcessVersion>11.0</crs:ProcessVersion>
  <crs:RawFileName>_V7A1066.CR2</crs:RawFileName>
  <crs:RedHue>0</crs:RedHue>
  <crs:RedSaturation>0</crs:RedSaturation>
  <crs:Saturation>+5</crs:Saturation>
  <crs:SaturationAdjustmentAqua>+6</crs:SaturationAdjustmentAqua>
  <crs:SaturationAdjustmentBlue>+17</crs:SaturationAdjustmentBlue>
  <crs:SaturationAdjustmentGreen>0</crs:SaturationAdjustmentGreen>
  <crs:SaturationAdjustmentMagenta>0</crs:SaturationAdjustmentMagenta>
  <crs:SaturationAdjustmentOrange>0</crs:SaturationAdjustmentOrange>
  <crs:SaturationAdjustmentPurple>0</crs:SaturationAdjustmentPurple>
  <crs:SaturationAdjustmentRed>0</crs:SaturationAdjustmentRed>
  <crs:SaturationAdjustmentYellow>0</crs:SaturationAdjustmentYellow>
  <crs:ShadowTint>0</crs:ShadowTint>
  <crs:Shadows2012>+82</crs:Shadows2012>
  <crs:SharpenDetail>25</crs:SharpenDetail>
  <crs:SharpenEdgeMasking>51</crs:SharpenEdgeMasking>
  <crs:SharpenRadius>+1.0</crs:SharpenRadius>
  <crs:Sharpness>46</crs:Sharpness>
  <crs:SplitToningBalance>0</crs:SplitToningBalance>
  <crs:SplitToningHighlightHue>0</crs:SplitToningHighlightHue>
  <crs:SplitToningHighlightSaturation>0</crs:SplitToningHighlightSaturation>
  <crs:SplitToningShadowHue>0</crs:SplitToningShadowHue>
  <crs:SplitToningShadowSaturation>0</crs:SplitToningShadowSaturation>
  <crs:Temperature>5500</crs:Temperature>
  <crs:Tint>+10</crs:Tint>
  <crs:ToneCurve>
   <rdf:Seq>
    <rdf:li>0, 0</rdf:li>
    <rdf:li>255, 255</rdf:li>
   </rdf:Seq>
  </crs:ToneCurve>
  <crs:ToneCurveBlue>
   <rdf:Seq>
    <rdf:li>0, 0</rdf:li>
    <rdf:li>255, 255</rdf:li>
   </rdf:Seq>
  </crs:ToneCurveBlue>
  <crs:ToneCurveGreen>
   <rdf:Seq>
    <rdf:li>0, 0</rdf:li>
    <rdf:li>255, 255</rdf:li>
   </rdf:Seq>
  </crs:ToneCurveGreen>
  <crs:ToneCurveName>Linear</crs:ToneCurveName>
  <crs:ToneCurveName2012>Custom</crs:ToneCurveName2012>
  <crs:ToneCurvePV2012>
   <rdf:Seq>
    <rdf:li>0, 0</rdf:li>
    <rdf:li>75, 62</rdf:li>
    <rdf:li>195, 199</rdf:li>
    <rdf:li>255, 255</rdf:li>
   </rdf:Seq>
  </crs:ToneCurvePV2012>
  <crs:ToneCurvePV2012Blue>
   <rdf:Seq>
    <rdf:li>0, 0</rdf:li>
    <rdf:li>255, 255</rdf:li>
   </rdf:Seq>
  </crs:ToneCurvePV2012Blue>
  <crs:ToneCurvePV2012Green>
   <rdf:Seq>
    <rdf:li>0, 0</rdf:li>
    <rdf:li>255, 255</rdf:li>
   </rdf:Seq>
  </crs:ToneCurvePV2012Green>
  <crs:ToneCurvePV2012Red>
   <rdf:Seq>
    <rdf:li>0, 0</rdf:li>
    <rdf:li>255, 255</rdf:li>
   </rdf:Seq>
  </crs:ToneCurvePV2012Red>
  <crs:ToneCurveRed>
   <rdf:Seq>
    <rdf:li>0, 0</rdf:li>
    <rdf:li>255, 255</rdf:li>
   </rdf:Seq>
  </crs:ToneCurveRed>
  <crs:ToneMapStrength>0</crs:ToneMapStrength>
  <crs:UprightCenterMode>0</crs:UprightCenterMode>
  <crs:UprightCenterNormX>0.5</crs:UprightCenterNormX>
  <crs:UprightCenterNormY>0.5</crs:UprightCenterNormY>
  <crs:UprightFocalLength35mm>35</crs:UprightFocalLength35mm>
  <crs:UprightFocalMode>0</crs:UprightFocalMode>
  <crs:UprightFourSegmentsCount>0</crs:UprightFourSegmentsCount>
  <crs:UprightPreview>False</crs:UprightPreview>
  <crs:UprightTransformCount>6</crs:UprightTransformCount>
  <crs:UprightVersion>151388160</crs:UprightVersion>
  <crs:Version>11.2</crs:Version>
  <crs:Vibrance>+17</crs:Vibrance>
  <crs:VignetteAmount>0</crs:VignetteAmount>
  <crs:WhiteBalance>Daylight</crs:WhiteBalance>
  <crs:Whites2012>+35</crs:Whites2012>
 </rdf:Description>
</rdf:RDF>
</x:xmpmeta>
                                                                                                    
                                                                                                    
                                                                                                    
                                                                                                    
                                                                                                    
                                                                                                    
                                                                                                    
                                                                                                    
                                                                                                    
                                                                                                    
                                                                                                    
                                                                                                    
                                                                                                    
                                                                                                    
                                                                                                    
                                                                                                    
                                                                                                    
                                                                                                    
                                                                                                    
                                                                                                    
                                                                                                    
                                                                                                    
                                                                                                    
                                                                                                    
<?xpacket end='w'?>