src/commonTest/resources/com/ashampoo/kim/testdata/xmp/photo_5.xmp
<?xpacket begin='﻿' id='W5M0MpCehiHzreSzNTczkc9d'?>
<x:xmpmeta xmlns:x='adobe:ns:meta/' x:xmptk='Image::ExifTool 12.27'>
<rdf:RDF xmlns:rdf='http://www.w3.org/1999/02/22-rdf-syntax-ns#'>

 <rdf:Description rdf:about=''
  xmlns:aux='http://ns.adobe.com/exif/1.0/aux/'>
  <aux:LateralChromaticAberrationCorrectionAlreadyApplied>True</aux:LateralChromaticAberrationCorrectionAlreadyApplied>
  <aux:Lens>XF90mmF2 R LM WR</aux:Lens>
  <aux:LensInfo>9000/100 9000/100 200/100 200/100</aux:LensInfo>
  <aux:LensSerialNumber>65B00914</aux:LensSerialNumber>
  <aux:SerialNumber>7AA03899</aux:SerialNumber>
  <aux:VignetteCorrectionAlreadyApplied>True</aux:VignetteCorrectionAlreadyApplied>
 </rdf:Description>

 <rdf:Description rdf:about=''
  xmlns:dc='http://purl.org/dc/elements/1.1/'>
  <dc:format>image/jpeg</dc:format>
  <dc:subject>
   <rdf:Bag>
    <rdf:li>london</rdf:li>
   </rdf:Bag>
  </dc:subject>
 </rdf:Description>

 <rdf:Description rdf:about=''
  xmlns:exifEX='http://cipa.jp/exif/1.0/'>
  <exifEX:LensModel>XF90mmF2 R LM WR</exifEX:LensModel>
 </rdf:Description>

 <rdf:Description rdf:about=''
  xmlns:photoshop='http://ns.adobe.com/photoshop/1.0/'>
  <photoshop:DateCreated>2019-01-21T20:13:58</photoshop:DateCreated>
 </rdf:Description>

 <rdf:Description rdf:about=''
  xmlns:xmp='http://ns.adobe.com/xap/1.0/'>
  <xmp:CreateDate>2019-01-21T20:13:58</xmp:CreateDate>
  <xmp:CreatorTool>Adobe Photoshop Lightroom Classic 8.1 (Macintosh)</xmp:CreatorTool>
  <xmp:MetadataDate>2019-01-22T20:56:19Z</xmp:MetadataDate>
  <xmp:ModifyDate>2019-01-22T20:56:19Z</xmp:ModifyDate>
  <xmp:Rating>5</xmp:Rating>
 </rdf:Description>

 <rdf:Description rdf:about=''
  xmlns:stEvt='http://ns.adobe.com/xap/1.0/sType/ResourceEvent#'
  xmlns:stRef='http://ns.adobe.com/xap/1.0/sType/ResourceRef#'
  xmlns:xmpMM='http://ns.adobe.com/xap/1.0/mm/'>
  <xmpMM:DerivedFrom rdf:parseType='Resource'>
   <stRef:documentID>369B2D87DBEB889F004D361C07FB2970</stRef:documentID>
   <stRef:originalDocumentID>369B2D87DBEB889F004D361C07FB2970</stRef:originalDocumentID>
  </xmpMM:DerivedFrom>
  <xmpMM:DocumentID>xmp.did:1d14d048-4182-40ba-b961-63f22114306e</xmpMM:DocumentID>
  <xmpMM:History>
   <rdf:Seq>
    <rdf:li rdf:parseType='Resource'>
     <stEvt:action>derived</stEvt:action>
     <stEvt:parameters>converted from image/x-fuji-raw to image/jpeg, saved to new location</stEvt:parameters>
    </rdf:li>
    <rdf:li rdf:parseType='Resource'>
     <stEvt:action>saved</stEvt:action>
     <stEvt:changed>/</stEvt:changed>
     <stEvt:instanceID>xmp.iid:1d14d048-4182-40ba-b961-63f22114306e</stEvt:instanceID>
     <stEvt:softwareAgent>Adobe Photoshop Lightroom Classic 8.1 (Macintosh)</stEvt:softwareAgent>
     <stEvt:when>2019-01-22T20:56:19Z</stEvt:when>
    </rdf:li>
   </rdf:Seq>
  </xmpMM:History>
  <xmpMM:InstanceID>xmp.iid:1d14d048-4182-40ba-b961-63f22114306e</xmpMM:InstanceID>
  <xmpMM:OriginalDocumentID>369B2D87DBEB889F004D361C07FB2970</xmpMM:OriginalDocumentID>
 </rdf:Description>

 <rdf:Description rdf:about=''
  xmlns:crs='http://ns.adobe.com/camera-raw-settings/1.0/'>
  <crs:AlreadyApplied>True</crs:AlreadyApplied>
  <crs:AutoLateralCA>1</crs:AutoLateralCA>
  <crs:Blacks2012>-6</crs:Blacks2012>
  <crs:BlueHue>0</crs:BlueHue>
  <crs:BlueSaturation>0</crs:BlueSaturation>
  <crs:CameraProfile>Adobe Standard</crs:CameraProfile>
  <crs:CameraProfileDigest>272224000D5765B749BB38DB525CB88C</crs:CameraProfileDigest>
  <crs:CircularGradientBasedCorrections>
   <rdf:Seq>
    <rdf:li rdf:parseType='Resource'>
     <crs:CorrectionActive>true</crs:CorrectionActive>
     <crs:CorrectionAmount>1.000000</crs:CorrectionAmount>
     <crs:CorrectionMasks>
      <rdf:Seq>
       <rdf:li rdf:parseType='Resource'>
        <crs:Angle>0.000000</crs:Angle>
        <crs:Bottom>0.503248</crs:Bottom>
        <crs:Feather>+50</crs:Feather>
        <crs:Flipped>true</crs:Flipped>
        <crs:Left>0.491508</crs:Left>
        <crs:MaskValue>1.000000</crs:MaskValue>
        <crs:Midpoint>+50</crs:Midpoint>
        <crs:Right>0.594848</crs:Right>
        <crs:Roundness>0</crs:Roundness>
        <crs:Top>0.328390</crs:Top>
        <crs:Version>+2</crs:Version>
        <crs:What>Mask/CircularGradient</crs:What>
       </rdf:li>
      </rdf:Seq>
     </crs:CorrectionMasks>
     <crs:CorrectionRangeMask rdf:parseType='Resource'>
      <crs:ColorAmount>0.500000</crs:ColorAmount>
      <crs:DepthFeather>0.500000</crs:DepthFeather>
      <crs:DepthMax>1.000000</crs:DepthMax>
      <crs:DepthMin>0.000000</crs:DepthMin>
      <crs:LumFeather>0.500000</crs:LumFeather>
      <crs:LumMax>1.000000</crs:LumMax>
      <crs:LumMin>0.000000</crs:LumMin>
      <crs:Type>0</crs:Type>
      <crs:Version>+2</crs:Version>
     </crs:CorrectionRangeMask>
     <crs:LocalBlacks2012>0.000000</crs:LocalBlacks2012>
     <crs:LocalBrightness>0.000000</crs:LocalBrightness>
     <crs:LocalClarity2012>0.000000</crs:LocalClarity2012>
     <crs:LocalContrast2012>0.000000</crs:LocalContrast2012>
     <crs:LocalDefringe>0.000000</crs:LocalDefringe>
     <crs:LocalDehaze>0.000000</crs:LocalDehaze>
     <crs:LocalExposure2012>0.000000</crs:LocalExposure2012>
     <crs:LocalHighlights2012>0.000000</crs:LocalHighlights2012>
     <crs:LocalLuminanceNoise>0.000000</crs:LocalLuminanceNoise>
     <crs:LocalMoire>0.000000</crs:LocalMoire>
     <crs:LocalSaturation>0.000000</crs:LocalSaturation>
     <crs:LocalShadows2012>0.000000</crs:LocalShadows2012>
     <crs:LocalSharpness>0.299758</crs:LocalSharpness>
     <crs:LocalTemperature>0.000000</crs:LocalTemperature>
     <crs:LocalTint>0.000000</crs:LocalTint>
     <crs:LocalToningHue>340.781006</crs:LocalToningHue>
     <crs:LocalToningSaturation>0.000000</crs:LocalToningSaturation>
     <crs:LocalWhites2012>0.000000</crs:LocalWhites2012>
     <crs:What>Correction</crs:What>
    </rdf:li>
   </rdf:Seq>
  </crs:CircularGradientBasedCorrections>
  <crs:Clarity2012>0</crs:Clarity2012>
  <crs:ColorNoiseReduction>25</crs:ColorNoiseReduction>
  <crs:ColorNoiseReductionDetail>50</crs:ColorNoiseReductionDetail>
  <crs:ColorNoiseReductionSmoothness>50</crs:ColorNoiseReductionSmoothness>
  <crs:Contrast2012>0</crs:Contrast2012>
  <crs:ConvertToGrayscale>False</crs:ConvertToGrayscale>
  <crs:CropAngle>0</crs:CropAngle>
  <crs:CropBottom>0.757068</crs:CropBottom>
  <crs:CropConstrainToWarp>0</crs:CropConstrainToWarp>
  <crs:CropLeft>0.210608</crs:CropLeft>
  <crs:CropRight>0.815437</crs:CropRight>
  <crs:CropTop>0.246744</crs:CropTop>
  <crs:DefringeGreenAmount>0</crs:DefringeGreenAmount>
  <crs:DefringeGreenHueHi>60</crs:DefringeGreenHueHi>
  <crs:DefringeGreenHueLo>40</crs:DefringeGreenHueLo>
  <crs:DefringePurpleAmount>0</crs:DefringePurpleAmount>
  <crs:DefringePurpleHueHi>70</crs:DefringePurpleHueHi>
  <crs:DefringePurpleHueLo>30</crs:DefringePurpleHueLo>
  <crs:Dehaze>0</crs:Dehaze>
  <crs:Exposure2012>0.00</crs:Exposure2012>
  <crs:GrainAmount>0</crs:GrainAmount>
  <crs:GreenHue>0</crs:GreenHue>
  <crs:GreenSaturation>0</crs:GreenSaturation>
  <crs:HasCrop>True</crs:HasCrop>
  <crs:HasSettings>True</crs:HasSettings>
  <crs:Highlights2012>-51</crs:Highlights2012>
  <crs:HueAdjustmentAqua>0</crs:HueAdjustmentAqua>
  <crs:HueAdjustmentBlue>0</crs:HueAdjustmentBlue>
  <crs:HueAdjustmentGreen>0</crs:HueAdjustmentGreen>
  <crs:HueAdjustmentMagenta>0</crs:HueAdjustmentMagenta>
  <crs:HueAdjustmentOrange>0</crs:HueAdjustmentOrange>
  <crs:HueAdjustmentPurple>0</crs:HueAdjustmentPurple>
  <crs:HueAdjustmentRed>0</crs:HueAdjustmentRed>
  <crs:HueAdjustmentYellow>0</crs:HueAdjustmentYellow>
  <crs:LensManualDistortionAmount>0</crs:LensManualDistortionAmount>
  <crs:LensProfileEnable>0</crs:LensProfileEnable>
  <crs:LensProfileSetup>LensDefaults</crs:LensProfileSetup>
  <crs:Look rdf:parseType='Resource'>
   <crs:Amount>1.000000</crs:Amount>
   <crs:Group>
    <rdf:Alt>
     <rdf:li xml:lang='x-default'>Profiles</rdf:li>
    </rdf:Alt>
   </crs:Group>
   <crs:Name>Adobe Vivid</crs:Name>
   <crs:Parameters rdf:parseType='Resource'>
    <crs:CameraProfile>Adobe Standard</crs:CameraProfile>
    <crs:Clarity2012>+10</crs:Clarity2012>
    <crs:ConvertToGrayscale>False</crs:ConvertToGrayscale>
    <crs:LookTable>2FE663AB0D3CE5DA7B9F657BBCD66DFE</crs:LookTable>
    <crs:ProcessVersion>11.0</crs:ProcessVersion>
    <crs:ToneCurvePV2012>
     <rdf:Seq>
      <rdf:li>0, 0</rdf:li>
      <rdf:li>32, 22</rdf:li>
      <rdf:li>64, 56</rdf:li>
      <rdf:li>128, 128</rdf:li>
      <rdf:li>224, 232</rdf:li>
      <rdf:li>240, 246</rdf:li>
      <rdf:li>255, 255</rdf:li>
     </rdf:Seq>
    </crs:ToneCurvePV2012>
    <crs:Version>11.1</crs:Version>
   </crs:Parameters>
   <crs:SupportsAmount>false</crs:SupportsAmount>
   <crs:SupportsMonochrome>false</crs:SupportsMonochrome>
   <crs:SupportsOutputReferred>false</crs:SupportsOutputReferred>
   <crs:UUID>EA1DE074F188405965EF399C72C221D9</crs:UUID>
  </crs:Look>
  <crs:LuminanceAdjustmentAqua>0</crs:LuminanceAdjustmentAqua>
  <crs:LuminanceAdjustmentBlue>0</crs:LuminanceAdjustmentBlue>
  <crs:LuminanceAdjustmentGreen>0</crs:LuminanceAdjustmentGreen>
  <crs:LuminanceAdjustmentMagenta>0</crs:LuminanceAdjustmentMagenta>
  <crs:LuminanceAdjustmentOrange>0</crs:LuminanceAdjustmentOrange>
  <crs:LuminanceAdjustmentPurple>0</crs:LuminanceAdjustmentPurple>
  <crs:LuminanceAdjustmentRed>0</crs:LuminanceAdjustmentRed>
  <crs:LuminanceAdjustmentYellow>0</crs:LuminanceAdjustmentYellow>
  <crs:LuminanceNoiseReductionContrast>0</crs:LuminanceNoiseReductionContrast>
  <crs:LuminanceNoiseReductionDetail>50</crs:LuminanceNoiseReductionDetail>
  <crs:LuminanceSmoothing>8</crs:LuminanceSmoothing>
  <crs:OverrideLookVignette>False</crs:OverrideLookVignette>
  <crs:ParametricDarks>0</crs:ParametricDarks>
  <crs:ParametricHighlightSplit>75</crs:ParametricHighlightSplit>
  <crs:ParametricHighlights>0</crs:ParametricHighlights>
  <crs:ParametricLights>0</crs:ParametricLights>
  <crs:ParametricMidtoneSplit>50</crs:ParametricMidtoneSplit>
  <crs:ParametricShadowSplit>25</crs:ParametricShadowSplit>
  <crs:ParametricShadows>0</crs:ParametricShadows>
  <crs:PerspectiveAspect>0</crs:PerspectiveAspect>
  <crs:PerspectiveHorizontal>0</crs:PerspectiveHorizontal>
  <crs:PerspectiveRotate>0.0</crs:PerspectiveRotate>
  <crs:PerspectiveScale>100</crs:PerspectiveScale>
  <crs:PerspectiveUpright>0</crs:PerspectiveUpright>
  <crs:PerspectiveVertical>0</crs:PerspectiveVertical>
  <crs:PerspectiveX>0.00</crs:PerspectiveX>
  <crs:PerspectiveY>0.00</crs:PerspectiveY>
  <crs:PostCropVignetteAmount>0</crs:PostCropVignetteAmount>
  <crs:ProcessVersion>11.0</crs:ProcessVersion>
  <crs:RawFileName>DSCF2429.RAF</crs:RawFileName>
  <crs:RedHue>0</crs:RedHue>
  <crs:RedSaturation>0</crs:RedSaturation>
  <crs:Saturation>0</crs:Saturation>
  <crs:SaturationAdjustmentAqua>0</crs:SaturationAdjustmentAqua>
  <crs:SaturationAdjustmentBlue>0</crs:SaturationAdjustmentBlue>
  <crs:SaturationAdjustmentGreen>0</crs:SaturationAdjustmentGreen>
  <crs:SaturationAdjustmentMagenta>0</crs:SaturationAdjustmentMagenta>
  <crs:SaturationAdjustmentOrange>0</crs:SaturationAdjustmentOrange>
  <crs:SaturationAdjustmentPurple>0</crs:SaturationAdjustmentPurple>
  <crs:SaturationAdjustmentRed>-15</crs:SaturationAdjustmentRed>
  <crs:SaturationAdjustmentYellow>0</crs:SaturationAdjustmentYellow>
  <crs:ShadowTint>0</crs:ShadowTint>
  <crs:Shadows2012>+20</crs:Shadows2012>
  <crs:SharpenDetail>25</crs:SharpenDetail>
  <crs:SharpenEdgeMasking>0</crs:SharpenEdgeMasking>
  <crs:SharpenRadius>+1.0</crs:SharpenRadius>
  <crs:Sharpness>44</crs:Sharpness>
  <crs:SplitToningBalance>0</crs:SplitToningBalance>
  <crs:SplitToningHighlightHue>0</crs:SplitToningHighlightHue>
  <crs:SplitToningHighlightSaturation>0</crs:SplitToningHighlightSaturation>
  <crs:SplitToningShadowHue>0</crs:SplitToningShadowHue>
  <crs:SplitToningShadowSaturation>0</crs:SplitToningShadowSaturation>
  <crs:Temperature>5490</crs:Temperature>
  <crs:Tint>+17</crs:Tint>
  <crs:ToneCurve>
   <rdf:Seq>
    <rdf:li>0, 0</rdf:li>
    <rdf:li>255, 255</rdf:li>
   </rdf:Seq>
  </crs:ToneCurve>
  <crs:ToneCurveBlue>
   <rdf:Seq>
    <rdf:li>0, 0</rdf:li>
    <rdf:li>255, 255</rdf:li>
   </rdf:Seq>
  </crs:ToneCurveBlue>
  <crs:ToneCurveGreen>
   <rdf:Seq>
    <rdf:li>0, 0</rdf:li>
    <rdf:li>255, 255</rdf:li>
   </rdf:Seq>
  </crs:ToneCurveGreen>
  <crs:ToneCurveName>Linear</crs:ToneCurveName>
  <crs:ToneCurveName2012>Custom</crs:ToneCurveName2012>
  <crs:ToneCurvePV2012>
   <rdf:Seq>
    <rdf:li>0, 8</rdf:li>
    <rdf:li>45, 47</rdf:li>
    <rdf:li>255, 255</rdf:li>
   </rdf:Seq>
  </crs:ToneCurvePV2012>
  <crs:ToneCurvePV2012Blue>
   <rdf:Seq>
    <rdf:li>0, 0</rdf:li>
    <rdf:li>255, 255</rdf:li>
   </rdf:Seq>
  </crs:ToneCurvePV2012Blue>
  <crs:ToneCurvePV2012Green>
   <rdf:Seq>
    <rdf:li>0, 0</rdf:li>
    <rdf:li>255, 255</rdf:li>
   </rdf:Seq>
  </crs:ToneCurvePV2012Green>
  <crs:ToneCurvePV2012Red>
   <rdf:Seq>
    <rdf:li>0, 0</rdf:li>
    <rdf:li>255, 255</rdf:li>
   </rdf:Seq>
  </crs:ToneCurvePV2012Red>
  <crs:ToneCurveRed>
   <rdf:Seq>
    <rdf:li>0, 0</rdf:li>
    <rdf:li>255, 255</rdf:li>
   </rdf:Seq>
  </crs:ToneCurveRed>
  <crs:ToneMapStrength>0</crs:ToneMapStrength>
  <crs:UprightCenterMode>0</crs:UprightCenterMode>
  <crs:UprightCenterNormX>0.5</crs:UprightCenterNormX>
  <crs:UprightCenterNormY>0.5</crs:UprightCenterNormY>
  <crs:UprightFocalLength35mm>35</crs:UprightFocalLength35mm>
  <crs:UprightFocalMode>0</crs:UprightFocalMode>
  <crs:UprightFourSegmentsCount>0</crs:UprightFourSegmentsCount>
  <crs:UprightPreview>False</crs:UprightPreview>
  <crs:UprightTransformCount>6</crs:UprightTransformCount>
  <crs:UprightVersion>151388160</crs:UprightVersion>
  <crs:Version>11.1</crs:Version>
  <crs:Vibrance>0</crs:Vibrance>
  <crs:VignetteAmount>0</crs:VignetteAmount>
  <crs:WhiteBalance>Custom</crs:WhiteBalance>
  <crs:Whites2012>+45</crs:Whites2012>
 </rdf:Description>
</rdf:RDF>
</x:xmpmeta>
                                                                                                    
                                                                                                    
                                                                                                    
                                                                                                    
                                                                                                    
                                                                                                    
                                                                                                    
                                                                                                    
                                                                                                    
                                                                                                    
                                                                                                    
                                                                                                    
                                                                                                    
                                                                                                    
                                                                                                    
                                                                                                    
                                                                                                    
                                                                                                    
                                                                                                    
                                                                                                    
                                                                                                    
                                                                                                    
                                                                                                    
                                                                                                    
<?xpacket end='w'?>