src/commonTest/resources/com/ashampoo/kim/testdata/xmp/photo_7.xmp
<?xpacket begin='﻿' id='W5M0MpCehiHzreSzNTczkc9d'?>
<x:xmpmeta xmlns:x='adobe:ns:meta/' x:xmptk='Image::ExifTool 12.27'>
<rdf:RDF xmlns:rdf='http://www.w3.org/1999/02/22-rdf-syntax-ns#'>

 <rdf:Description rdf:about=''
  xmlns:aux='http://ns.adobe.com/exif/1.0/aux/'>
  <aux:Lens>DT 0mm F0 SAM</aux:Lens>
 </rdf:Description>

 <rdf:Description rdf:about=''
  xmlns:dc='http://purl.org/dc/elements/1.1/'>
  <dc:format>image/jpeg</dc:format>
 </rdf:Description>

 <rdf:Description rdf:about=''
  xmlns:photoshop='http://ns.adobe.com/photoshop/1.0/'>
  <photoshop:DateCreated>2019-04-17T18:11:48</photoshop:DateCreated>
 </rdf:Description>

 <rdf:Description rdf:about=''
  xmlns:xmp='http://ns.adobe.com/xap/1.0/'>
  <xmp:CreateDate>2019-04-17T18:11:48</xmp:CreateDate>
  <xmp:CreatorTool>Adobe Photoshop Lightroom 4.4 (Windows)</xmp:CreatorTool>
  <xmp:MetadataDate>2019-04-19T13:15:50+02:00</xmp:MetadataDate>
  <xmp:ModifyDate>2019-04-19T13:15:50+02:00</xmp:ModifyDate>
  <xmp:Rating>0</xmp:Rating>
 </rdf:Description>

 <rdf:Description rdf:about=''
  xmlns:stEvt='http://ns.adobe.com/xap/1.0/sType/ResourceEvent#'
  xmlns:stRef='http://ns.adobe.com/xap/1.0/sType/ResourceRef#'
  xmlns:xmpMM='http://ns.adobe.com/xap/1.0/mm/'>
  <xmpMM:DerivedFrom rdf:parseType='Resource'>
   <stRef:documentID>41776F425485867EA1701AE086BCD5CE</stRef:documentID>
   <stRef:originalDocumentID>41776F425485867EA1701AE086BCD5CE</stRef:originalDocumentID>
  </xmpMM:DerivedFrom>
  <xmpMM:DocumentID>xmp.did:200afdf1-ac0c-6b4c-bfdd-8f8e7a84c312</xmpMM:DocumentID>
  <xmpMM:History>
   <rdf:Seq>
    <rdf:li rdf:parseType='Resource'>
     <stEvt:action>derived</stEvt:action>
     <stEvt:parameters>saved to new location</stEvt:parameters>
    </rdf:li>
    <rdf:li rdf:parseType='Resource'>
     <stEvt:action>saved</stEvt:action>
     <stEvt:changed>/</stEvt:changed>
     <stEvt:instanceID>xmp.iid:200afdf1-ac0c-6b4c-bfdd-8f8e7a84c312</stEvt:instanceID>
     <stEvt:softwareAgent>Adobe Photoshop Lightroom 4.4 (Windows)</stEvt:softwareAgent>
     <stEvt:when>2019-04-19T13:15:50+02:00</stEvt:when>
    </rdf:li>
   </rdf:Seq>
  </xmpMM:History>
  <xmpMM:InstanceID>xmp.iid:200afdf1-ac0c-6b4c-bfdd-8f8e7a84c312</xmpMM:InstanceID>
  <xmpMM:OriginalDocumentID>41776F425485867EA1701AE086BCD5CE</xmpMM:OriginalDocumentID>
 </rdf:Description>

 <rdf:Description rdf:about=''
  xmlns:crs='http://ns.adobe.com/camera-raw-settings/1.0/'>
  <crs:AlreadyApplied>True</crs:AlreadyApplied>
  <crs:AutoLateralCA>0</crs:AutoLateralCA>
  <crs:Blacks2012>-10</crs:Blacks2012>
  <crs:BlueHue>0</crs:BlueHue>
  <crs:BlueSaturation>0</crs:BlueSaturation>
  <crs:CameraProfile>Embedded</crs:CameraProfile>
  <crs:Clarity2012>0</crs:Clarity2012>
  <crs:ColorNoiseReduction>25</crs:ColorNoiseReduction>
  <crs:ColorNoiseReductionDetail>50</crs:ColorNoiseReductionDetail>
  <crs:Contrast2012>+10</crs:Contrast2012>
  <crs:ConvertToGrayscale>False</crs:ConvertToGrayscale>
  <crs:DefringeGreenAmount>0</crs:DefringeGreenAmount>
  <crs:DefringeGreenHueHi>60</crs:DefringeGreenHueHi>
  <crs:DefringeGreenHueLo>40</crs:DefringeGreenHueLo>
  <crs:DefringePurpleAmount>0</crs:DefringePurpleAmount>
  <crs:DefringePurpleHueHi>70</crs:DefringePurpleHueHi>
  <crs:DefringePurpleHueLo>30</crs:DefringePurpleHueLo>
  <crs:Exposure2012>+0.90</crs:Exposure2012>
  <crs:GrainAmount>0</crs:GrainAmount>
  <crs:GreenHue>0</crs:GreenHue>
  <crs:GreenSaturation>0</crs:GreenSaturation>
  <crs:HasCrop>False</crs:HasCrop>
  <crs:HasSettings>True</crs:HasSettings>
  <crs:Highlights2012>+25</crs:Highlights2012>
  <crs:HueAdjustmentAqua>0</crs:HueAdjustmentAqua>
  <crs:HueAdjustmentBlue>-15</crs:HueAdjustmentBlue>
  <crs:HueAdjustmentGreen>-20</crs:HueAdjustmentGreen>
  <crs:HueAdjustmentMagenta>+48</crs:HueAdjustmentMagenta>
  <crs:HueAdjustmentOrange>+10</crs:HueAdjustmentOrange>
  <crs:HueAdjustmentPurple>0</crs:HueAdjustmentPurple>
  <crs:HueAdjustmentRed>+48</crs:HueAdjustmentRed>
  <crs:HueAdjustmentYellow>-15</crs:HueAdjustmentYellow>
  <crs:IncrementalTemperature>+5</crs:IncrementalTemperature>
  <crs:IncrementalTint>0</crs:IncrementalTint>
  <crs:LensManualDistortionAmount>0</crs:LensManualDistortionAmount>
  <crs:LensProfileEnable>0</crs:LensProfileEnable>
  <crs:LensProfileSetup>LensDefaults</crs:LensProfileSetup>
  <crs:LuminanceAdjustmentAqua>-20</crs:LuminanceAdjustmentAqua>
  <crs:LuminanceAdjustmentBlue>-25</crs:LuminanceAdjustmentBlue>
  <crs:LuminanceAdjustmentGreen>-5</crs:LuminanceAdjustmentGreen>
  <crs:LuminanceAdjustmentMagenta>-11</crs:LuminanceAdjustmentMagenta>
  <crs:LuminanceAdjustmentOrange>+10</crs:LuminanceAdjustmentOrange>
  <crs:LuminanceAdjustmentPurple>0</crs:LuminanceAdjustmentPurple>
  <crs:LuminanceAdjustmentRed>-15</crs:LuminanceAdjustmentRed>
  <crs:LuminanceAdjustmentYellow>+12</crs:LuminanceAdjustmentYellow>
  <crs:LuminanceSmoothing>0</crs:LuminanceSmoothing>
  <crs:PaintBasedCorrections>
   <rdf:Seq>
    <rdf:li rdf:parseType='Resource'>
     <crs:CorrectionActive>true</crs:CorrectionActive>
     <crs:CorrectionAmount>1.000000</crs:CorrectionAmount>
     <crs:CorrectionMasks>
      <rdf:Seq>
       <rdf:li rdf:parseType='Resource'>
        <crs:CenterWeight>0.000000</crs:CenterWeight>
        <crs:Dabs>
         <rdf:Seq>
          <rdf:li>d 0.424000 0.441943</rdf:li>
          <rdf:li>d 0.424485 0.441943</rdf:li>
          <rdf:li>d 0.424803 0.441647</rdf:li>
          <rdf:li>d 0.425220 0.441351</rdf:li>
          <rdf:li>d 0.425538 0.441055</rdf:li>
          <rdf:li>d 0.426023 0.441055</rdf:li>
          <rdf:li>d 0.426341 0.440758</rdf:li>
          <rdf:li>d 0.426827 0.440758</rdf:li>
          <rdf:li>d 0.427312 0.440758</rdf:li>
          <rdf:li>d 0.427797 0.440758</rdf:li>
          <rdf:li>d 0.428282 0.440758</rdf:li>
          <rdf:li>d 0.428767 0.440758</rdf:li>
          <rdf:li>d 0.429252 0.440758</rdf:li>
          <rdf:li>d 0.429668 0.441055</rdf:li>
          <rdf:li>d 0.430153 0.441055</rdf:li>
          <rdf:li>d 0.430638 0.441055</rdf:li>
          <rdf:li>d 0.430957 0.441351</rdf:li>
          <rdf:li>d 0.431442 0.441351</rdf:li>
          <rdf:li>d 0.431927 0.441351</rdf:li>
          <rdf:li>d 0.431667 0.441211</rdf:li>
          <rdf:li>d 0.431500 0.440645</rdf:li>
          <rdf:li>d 0.431132 0.440401</rdf:li>
          <rdf:li>d 0.430771 0.439870</rdf:li>
          <rdf:li>d 0.430467 0.439514</rdf:li>
          <rdf:li>d 0.430037 0.439277</rdf:li>
          <rdf:li>d 0.429621 0.438981</rdf:li>
          <rdf:li>d 0.429136 0.438981</rdf:li>
          <rdf:li>d 0.428650 0.438981</rdf:li>
          <rdf:li>d 0.428234 0.439277</rdf:li>
          <rdf:li>d 0.427833 0.439600</rdf:li>
          <rdf:li>d 0.427667 0.440166</rdf:li>
          <rdf:li>d 0.427251 0.440462</rdf:li>
          <rdf:li>d 0.426834 0.440757</rdf:li>
          <rdf:li>d 0.426419 0.441055</rdf:li>
          <rdf:li>d 0.426000 0.441173</rdf:li>
          <rdf:li>d 0.425679 0.441625</rdf:li>
          <rdf:li>d 0.425333 0.441886</rdf:li>
          <rdf:li>d 0.424881 0.441943</rdf:li>
          <rdf:li>d 0.424562 0.442239</rdf:li>
          <rdf:li>d 0.424077 0.442239</rdf:li>
          <rdf:li>d 0.423833 0.441810</rdf:li>
          <rdf:li>d 0.423833 0.440948</rdf:li>
          <rdf:li>d 0.424045 0.440462</rdf:li>
          <rdf:li>d 0.424363 0.440166</rdf:li>
          <rdf:li>d 0.424667 0.439670</rdf:li>
          <rdf:li>d 0.425069 0.439451</rdf:li>
          <rdf:li>d 0.425514 0.439277</rdf:li>
          <rdf:li>d 0.425999 0.439277</rdf:li>
          <rdf:li>d 0.426317 0.438981</rdf:li>
          <rdf:li>d 0.426802 0.438981</rdf:li>
          <rdf:li>d 0.427287 0.438981</rdf:li>
          <rdf:li>d 0.427772 0.438981</rdf:li>
          <rdf:li>d 0.428258 0.438981</rdf:li>
          <rdf:li>d 0.428743 0.438981</rdf:li>
          <rdf:li>d 0.429228 0.438981</rdf:li>
          <rdf:li>d 0.429650 0.439248</rdf:li>
          <rdf:li>d 0.430000 0.439506</rdf:li>
          <rdf:li>d 0.430414 0.439717</rdf:li>
         </rdf:Seq>
        </crs:Dabs>
        <crs:Flow>1.000000</crs:Flow>
        <crs:MaskValue>1.000000</crs:MaskValue>
        <crs:Radius>0.001617</crs:Radius>
        <crs:What>Mask/Paint</crs:What>
       </rdf:li>
       <rdf:li rdf:parseType='Resource'>
        <crs:CenterWeight>0.000000</crs:CenterWeight>
        <crs:Dabs>
         <rdf:Seq>
          <rdf:li>d 0.472500 0.444017</rdf:li>
          <rdf:li>d 0.472333 0.443451</rdf:li>
          <rdf:li>d 0.472167 0.443371</rdf:li>
          <rdf:li>d 0.472167 0.443208</rdf:li>
          <rdf:li>d 0.472167 0.442345</rdf:li>
          <rdf:li>d 0.472356 0.442239</rdf:li>
          <rdf:li>d 0.472500 0.442817</rdf:li>
          <rdf:li>d 0.472500 0.441955</rdf:li>
          <rdf:li>d 0.472645 0.441351</rdf:li>
          <rdf:li>d 0.473061 0.441055</rdf:li>
          <rdf:li>d 0.473546 0.441055</rdf:li>
          <rdf:li>d 0.474000 0.441110</rdf:li>
          <rdf:li>d 0.474183 0.441647</rdf:li>
          <rdf:li>d 0.474668 0.441647</rdf:li>
          <rdf:li>d 0.475153 0.441647</rdf:li>
          <rdf:li>d 0.475638 0.441647</rdf:li>
          <rdf:li>d 0.476087 0.441802</rdf:li>
          <rdf:li>d 0.476500 0.442013</rdf:li>
          <rdf:li>d 0.476858 0.442239</rdf:li>
          <rdf:li>d 0.477274 0.442536</rdf:li>
          <rdf:li>d 0.477759 0.442536</rdf:li>
          <rdf:li>d 0.478167 0.442846</rdf:li>
          <rdf:li>d 0.477840 0.443128</rdf:li>
          <rdf:li>d 0.477424 0.443424</rdf:li>
          <rdf:li>d 0.476957 0.443501</rdf:li>
          <rdf:li>d 0.476523 0.443720</rdf:li>
          <rdf:li>d 0.476107 0.444017</rdf:li>
          <rdf:li>d 0.475667 0.444096</rdf:li>
          <rdf:li>d 0.475303 0.444313</rdf:li>
          <rdf:li>d 0.474823 0.444332</rdf:li>
          <rdf:li>d 0.474402 0.444609</rdf:li>
          <rdf:li>d 0.474225 0.444209</rdf:li>
          <rdf:li>d 0.474500 0.443549</rdf:li>
          <rdf:li>d 0.474581 0.442832</rdf:li>
          <rdf:li>d 0.474900 0.442536</rdf:li>
          <rdf:li>d 0.475385 0.442536</rdf:li>
          <rdf:li>d 0.475667 0.442897</rdf:li>
          <rdf:li>d 0.475855 0.443424</rdf:li>
          <rdf:li>d 0.476241 0.443852</rdf:li>
          <rdf:li>d 0.476521 0.444313</rdf:li>
          <rdf:li>d 0.476829 0.444010</rdf:li>
          <rdf:li>d 0.476667 0.443267</rdf:li>
          <rdf:li>d 0.476379 0.442617</rdf:li>
          <rdf:li>d 0.475913 0.442536</rdf:li>
          <rdf:li>d 0.475428 0.442536</rdf:li>
          <rdf:li>d 0.474943 0.442536</rdf:li>
          <rdf:li>d 0.474667 0.442907</rdf:li>
          <rdf:li>d 0.474363 0.443372</rdf:li>
          <rdf:li>d 0.474057 0.443720</rdf:li>
          <rdf:li>d 0.473641 0.444017</rdf:li>
          <rdf:li>d 0.473492 0.443875</rdf:li>
          <rdf:li>d 0.473790 0.443424</rdf:li>
          <rdf:li>d 0.474275 0.443424</rdf:li>
          <rdf:li>d 0.474733 0.443542</rdf:li>
          <rdf:li>d 0.475167 0.443738</rdf:li>
          <rdf:li>d 0.475495 0.444017</rdf:li>
          <rdf:li>d 0.475980 0.444017</rdf:li>
          <rdf:li>d 0.476465 0.444017</rdf:li>
          <rdf:li>d 0.476950 0.444017</rdf:li>
          <rdf:li>d 0.477366 0.443720</rdf:li>
          <rdf:li>d 0.477851 0.443720</rdf:li>
          <rdf:li>d 0.478336 0.443720</rdf:li>
          <rdf:li>d 0.478667 0.443445</rdf:li>
         </rdf:Seq>
        </crs:Dabs>
        <crs:Flow>1.000000</crs:Flow>
        <crs:MaskValue>1.000000</crs:MaskValue>
        <crs:Radius>0.001617</crs:Radius>
        <crs:What>Mask/Paint</crs:What>
       </rdf:li>
      </rdf:Seq>
     </crs:CorrectionMasks>
     <crs:LocalBrightness>0.000000</crs:LocalBrightness>
     <crs:LocalClarity2012>0.000000</crs:LocalClarity2012>
     <crs:LocalContrast2012>0.050000</crs:LocalContrast2012>
     <crs:LocalDefringe>0.000000</crs:LocalDefringe>
     <crs:LocalExposure2012>0.000000</crs:LocalExposure2012>
     <crs:LocalHighlights2012>1.000000</crs:LocalHighlights2012>
     <crs:LocalLuminanceNoise>0.000000</crs:LocalLuminanceNoise>
     <crs:LocalMoire>0.000000</crs:LocalMoire>
     <crs:LocalSaturation>0.000000</crs:LocalSaturation>
     <crs:LocalShadows2012>0.000000</crs:LocalShadows2012>
     <crs:LocalSharpness>0.000000</crs:LocalSharpness>
     <crs:LocalTemperature>0.126440</crs:LocalTemperature>
     <crs:LocalTint>0.000000</crs:LocalTint>
     <crs:LocalToningHue>0.000000</crs:LocalToningHue>
     <crs:LocalToningSaturation>0.000000</crs:LocalToningSaturation>
     <crs:What>Correction</crs:What>
    </rdf:li>
   </rdf:Seq>
  </crs:PaintBasedCorrections>
  <crs:ParametricDarks>0</crs:ParametricDarks>
  <crs:ParametricHighlightSplit>75</crs:ParametricHighlightSplit>
  <crs:ParametricHighlights>0</crs:ParametricHighlights>
  <crs:ParametricLights>0</crs:ParametricLights>
  <crs:ParametricMidtoneSplit>50</crs:ParametricMidtoneSplit>
  <crs:ParametricShadowSplit>25</crs:ParametricShadowSplit>
  <crs:ParametricShadows>0</crs:ParametricShadows>
  <crs:PerspectiveHorizontal>0</crs:PerspectiveHorizontal>
  <crs:PerspectiveRotate>0.0</crs:PerspectiveRotate>
  <crs:PerspectiveScale>100</crs:PerspectiveScale>
  <crs:PerspectiveVertical>0</crs:PerspectiveVertical>
  <crs:PostCropVignetteAmount>0</crs:PostCropVignetteAmount>
  <crs:ProcessVersion>6.7</crs:ProcessVersion>
  <crs:RedHue>0</crs:RedHue>
  <crs:RedSaturation>0</crs:RedSaturation>
  <crs:Saturation>-10</crs:Saturation>
  <crs:SaturationAdjustmentAqua>+25</crs:SaturationAdjustmentAqua>
  <crs:SaturationAdjustmentBlue>-20</crs:SaturationAdjustmentBlue>
  <crs:SaturationAdjustmentGreen>-41</crs:SaturationAdjustmentGreen>
  <crs:SaturationAdjustmentMagenta>-10</crs:SaturationAdjustmentMagenta>
  <crs:SaturationAdjustmentOrange>+10</crs:SaturationAdjustmentOrange>
  <crs:SaturationAdjustmentPurple>-51</crs:SaturationAdjustmentPurple>
  <crs:SaturationAdjustmentRed>+20</crs:SaturationAdjustmentRed>
  <crs:SaturationAdjustmentYellow>0</crs:SaturationAdjustmentYellow>
  <crs:ShadowTint>0</crs:ShadowTint>
  <crs:Shadows2012>-5</crs:Shadows2012>
  <crs:SharpenDetail>25</crs:SharpenDetail>
  <crs:SharpenEdgeMasking>0</crs:SharpenEdgeMasking>
  <crs:SharpenRadius>+1.0</crs:SharpenRadius>
  <crs:Sharpness>25</crs:Sharpness>
  <crs:SplitToningBalance>0</crs:SplitToningBalance>
  <crs:SplitToningHighlightHue>0</crs:SplitToningHighlightHue>
  <crs:SplitToningHighlightSaturation>0</crs:SplitToningHighlightSaturation>
  <crs:SplitToningShadowHue>0</crs:SplitToningShadowHue>
  <crs:SplitToningShadowSaturation>0</crs:SplitToningShadowSaturation>
  <crs:ToneCurveName2012>Custom</crs:ToneCurveName2012>
  <crs:ToneCurvePV2012>
   <rdf:Seq>
    <rdf:li>0, 0</rdf:li>
    <rdf:li>255, 255</rdf:li>
   </rdf:Seq>
  </crs:ToneCurvePV2012>
  <crs:ToneCurvePV2012Blue>
   <rdf:Seq>
    <rdf:li>0, 18</rdf:li>
    <rdf:li>26, 28</rdf:li>
    <rdf:li>51, 41</rdf:li>
    <rdf:li>77, 66</rdf:li>
    <rdf:li>102, 100</rdf:li>
    <rdf:li>128, 135</rdf:li>
    <rdf:li>153, 169</rdf:li>
    <rdf:li>179, 194</rdf:li>
    <rdf:li>204, 216</rdf:li>
    <rdf:li>230, 232</rdf:li>
    <rdf:li>255, 247</rdf:li>
   </rdf:Seq>
  </crs:ToneCurvePV2012Blue>
  <crs:ToneCurvePV2012Green>
   <rdf:Seq>
    <rdf:li>0, 18</rdf:li>
    <rdf:li>26, 25</rdf:li>
    <rdf:li>51, 36</rdf:li>
    <rdf:li>77, 57</rdf:li>
    <rdf:li>102, 92</rdf:li>
    <rdf:li>128, 132</rdf:li>
    <rdf:li>153, 166</rdf:li>
    <rdf:li>179, 193</rdf:li>
    <rdf:li>204, 215</rdf:li>
    <rdf:li>230, 231</rdf:li>
    <rdf:li>255, 246</rdf:li>
   </rdf:Seq>
  </crs:ToneCurvePV2012Green>
  <crs:ToneCurvePV2012Red>
   <rdf:Seq>
    <rdf:li>0, 18</rdf:li>
    <rdf:li>26, 23</rdf:li>
    <rdf:li>51, 33</rdf:li>
    <rdf:li>77, 53</rdf:li>
    <rdf:li>102, 88</rdf:li>
    <rdf:li>128, 132</rdf:li>
    <rdf:li>153, 168</rdf:li>
    <rdf:li>179, 195</rdf:li>
    <rdf:li>204, 216</rdf:li>
    <rdf:li>230, 232</rdf:li>
    <rdf:li>255, 247</rdf:li>
   </rdf:Seq>
  </crs:ToneCurvePV2012Red>
  <crs:Version>7.4</crs:Version>
  <crs:Vibrance>0</crs:Vibrance>
  <crs:VignetteAmount>0</crs:VignetteAmount>
  <crs:WhiteBalance>Custom</crs:WhiteBalance>
  <crs:Whites2012>+20</crs:Whites2012>
 </rdf:Description>
</rdf:RDF>
</x:xmpmeta>
                                                                                                    
                                                                                                    
                                                                                                    
                                                                                                    
                                                                                                    
                                                                                                    
                                                                                                    
                                                                                                    
                                                                                                    
                                                                                                    
                                                                                                    
                                                                                                    
                                                                                                    
                                                                                                    
                                                                                                    
                                                                                                    
                                                                                                    
                                                                                                    
                                                                                                    
                                                                                                    
                                                                                                    
                                                                                                    
                                                                                                    
                                                                                                    
<?xpacket end='w'?>