src/commonTest/resources/com/ashampoo/kim/testdata/xmp/photo_22.xmp
<?xpacket begin="﻿" id="W5M0MpCehiHzreSzNTczkc9d"?> <x:xmpmeta xmlns:x="adobe:ns:meta/" x:xmptk="Adobe XMP Core 5.6-c140 79.160451, 2017/05/06-01:08:21        "> <rdf:RDF xmlns:rdf="http://www.w3.org/1999/02/22-rdf-syntax-ns#"> <rdf:Description rdf:about="" xmlns:xmp="http://ns.adobe.com/xap/1.0/" xmlns:aux="http://ns.adobe.com/exif/1.0/aux/" xmlns:photoshop="http://ns.adobe.com/photoshop/1.0/" xmlns:dc="http://purl.org/dc/elements/1.1/" xmlns:crs="http://ns.adobe.com/camera-raw-settings/1.0/" xmlns:xmpMM="http://ns.adobe.com/xap/1.0/mm/" xmlns:stEvt="http://ns.adobe.com/xap/1.0/sType/ResourceEvent#" xmlns:mwg-rs="http://www.metadataworkinggroup.com/schemas/regions/" xmlns:stArea="http://ns.adobe.com/xmp/sType/Area#" xmlns:stDim="http://ns.adobe.com/xap/1.0/sType/Dimensions#" xmp:CreatorTool="13.3.1" xmp:ModifyDate="2020-02-20T01:11:51Z" xmp:CreateDate="2020-02-17T14:47:46.950" xmp:MetadataDate="2020-02-20T01:11:51Z" aux:LensInfo="17/4 6/1 9/5 2/1" aux:Lens="iPhone 11 Pro Max back dual camera 6mm f/2" aux:LateralChromaticAberrationCorrectionAlreadyApplied="True" photoshop:DateCreated="2020-02-17T14:47:46.950" dc:format="image/jpeg" crs:Version="12.2" crs:ProcessVersion="11.0" crs:WhiteBalance="Custom" crs:IncrementalTemperature="-6" crs:IncrementalTint="+3" crs:Saturation="+11" crs:Sharpness="0" crs:LuminanceSmoothing="0" crs:ColorNoiseReduction="0" crs:VignetteAmount="0" crs:ShadowTint="0" crs:RedHue="0" crs:RedSaturation="0" crs:GreenHue="0" crs:GreenSaturation="0" crs:BlueHue="0" crs:BlueSaturation="0" crs:Vibrance="+8" crs:HueAdjustmentRed="-6" crs:HueAdjustmentOrange="+100" crs:HueAdjustmentYellow="+100" crs:HueAdjustmentGreen="+100" crs:HueAdjustmentAqua="0" crs:HueAdjustmentBlue="0" crs:HueAdjustmentPurple="0" crs:HueAdjustmentMagenta="0" crs:SaturationAdjustmentRed="-100" crs:SaturationAdjustmentOrange="-1" crs:SaturationAdjustmentYellow="-45" crs:SaturationAdjustmentGreen="-30" crs:SaturationAdjustmentAqua="0" crs:SaturationAdjustmentBlue="0" crs:SaturationAdjustmentPurple="0" crs:SaturationAdjustmentMagenta="0" crs:LuminanceAdjustmentRed="0" crs:LuminanceAdjustmentOrange="+76" crs:LuminanceAdjustmentYellow="+35" crs:LuminanceAdjustmentGreen="+59" crs:LuminanceAdjustmentAqua="0" crs:LuminanceAdjustmentBlue="0" crs:LuminanceAdjustmentPurple="0" crs:LuminanceAdjustmentMagenta="0" crs:SplitToningShadowHue="0" crs:SplitToningShadowSaturation="0" crs:SplitToningHighlightHue="0" crs:SplitToningHighlightSaturation="0" crs:SplitToningBalance="0" crs:ParametricShadows="0" crs:ParametricDarks="0" crs:ParametricLights="0" crs:ParametricHighlights="0" crs:ParametricShadowSplit="25" crs:ParametricMidtoneSplit="50" crs:ParametricHighlightSplit="75" crs:SharpenRadius="+1.0" crs:SharpenDetail="25" crs:SharpenEdgeMasking="0" crs:PostCropVignetteAmount="+13" crs:PostCropVignetteMidpoint="50" crs:PostCropVignetteFeather="50" crs:PostCropVignetteRoundness="0" crs:PostCropVignetteStyle="1" crs:GrainAmount="46" crs:GrainSize="1" crs:GrainFrequency="50" crs:LensProfileEnable="1" crs:LensManualDistortionAmount="0" crs:PerspectiveVertical="0" crs:PerspectiveHorizontal="0" crs:PerspectiveRotate="0.0" crs:PerspectiveScale="100" crs:PerspectiveAspect="0" crs:PerspectiveUpright="0" crs:PerspectiveX="0.00" crs:PerspectiveY="0.00" crs:AutoLateralCA="1" crs:Exposure2012="+0.66" crs:Contrast2012="-14" crs:Highlights2012="-97" crs:Shadows2012="0" crs:Whites2012="+51" crs:Blacks2012="0" crs:Clarity2012="+9" crs:DefringePurpleAmount="0" crs:DefringePurpleHueLo="30" crs:DefringePurpleHueHi="70" crs:DefringeGreenAmount="0" crs:DefringeGreenHueLo="40" crs:DefringeGreenHueHi="60" crs:Dehaze="+2" crs:Texture="+13" crs:ToneMapStrength="0" crs:ConvertToGrayscale="False" crs:OverrideLookVignette="False" crs:ToneCurveName="Linear" crs:ToneCurveName2012="Linear" crs:CameraProfile="Embedded" crs:CameraProfileDigest="7C46B99B01D4938E45DB29DB42B23C19" crs:LensProfileSetup="LensDefaults" crs:UprightVersion="151388160" crs:UprightCenterMode="0" crs:UprightCenterNormX="0.5" crs:UprightCenterNormY="0.5" crs:UprightFocalMode="0" crs:UprightFocalLength35mm="35" crs:UprightPreview="False" crs:UprightTransformCount="6" crs:UprightFourSegmentsCount="0" crs:GrainSeed="2610145514" crs:HasSettings="True" crs:HasCrop="False" crs:AlreadyApplied="True" xmpMM:DocumentID="xmp.did:93cd3a00-3cf7-400d-a52d-dd6912fe9eef" xmpMM:InstanceID="xmp.iid:93cd3a00-3cf7-400d-a52d-dd6912fe9eef" xmpMM:OriginalDocumentID="xmp.did:93cd3a00-3cf7-400d-a52d-dd6912fe9eef"> <crs:ToneCurve> <rdf:Seq> <rdf:li>0, 0</rdf:li> <rdf:li>255, 255</rdf:li> </rdf:Seq> </crs:ToneCurve> <crs:ToneCurveRed> <rdf:Seq> <rdf:li>0, 0</rdf:li> <rdf:li>255, 255</rdf:li> </rdf:Seq> </crs:ToneCurveRed> <crs:ToneCurveGreen> <rdf:Seq> <rdf:li>0, 0</rdf:li> <rdf:li>255, 255</rdf:li> </rdf:Seq> </crs:ToneCurveGreen> <crs:ToneCurveBlue> <rdf:Seq> <rdf:li>0, 0</rdf:li> <rdf:li>255, 255</rdf:li> </rdf:Seq> </crs:ToneCurveBlue> <crs:ToneCurvePV2012> <rdf:Seq> <rdf:li>0, 0</rdf:li> <rdf:li>255, 255</rdf:li> </rdf:Seq> </crs:ToneCurvePV2012> <crs:ToneCurvePV2012Red> <rdf:Seq> <rdf:li>0, 0</rdf:li> <rdf:li>255, 255</rdf:li> </rdf:Seq> </crs:ToneCurvePV2012Red> <crs:ToneCurvePV2012Green> <rdf:Seq> <rdf:li>0, 0</rdf:li> <rdf:li>255, 255</rdf:li> </rdf:Seq> </crs:ToneCurvePV2012Green> <crs:ToneCurvePV2012Blue> <rdf:Seq> <rdf:li>0, 0</rdf:li> <rdf:li>255, 255</rdf:li> </rdf:Seq> </crs:ToneCurvePV2012Blue> <xmpMM:History> <rdf:Seq> <rdf:li stEvt:action="derived" stEvt:parameters="saved to new location"/> <rdf:li stEvt:action="saved" stEvt:instanceID="xmp.iid:93cd3a00-3cf7-400d-a52d-dd6912fe9eef" stEvt:when="2020-02-20T01:11:51Z" stEvt:softwareAgent="Adobe Lightroom 5.2.0 (iOS)" stEvt:changed="/"/> </rdf:Seq> </xmpMM:History> <mwg-rs:Regions rdf:parseType="Resource"> <mwg-rs:RegionList> <rdf:Seq> <rdf:li> <rdf:Description mwg-rs:Type="Focus"> <mwg-rs:Area stArea:y="0.65649998188018799" stArea:w="0.15800000727176666" stArea:x="0.57699999213218689" stArea:h="0.11299999803304672" stArea:unit="normalized"/> </rdf:Description> </rdf:li> <rdf:li> <rdf:Description mwg-rs:Type="Focus"> <mwg-rs:Area stArea:x="0.577000" stArea:y="0.656500" stArea:w="0.158000" stArea:h="0.113000" stArea:unit="normalized"/> </rdf:Description> </rdf:li> </rdf:Seq> </mwg-rs:RegionList> <mwg-rs:AppliedToDimensions stDim:h="4032" stDim:w="3023" stDim:unit="pixel"/> </mwg-rs:Regions> </rdf:Description> </rdf:RDF> </x:xmpmeta>                                                                                                                                                                                                                                                                                                                                                                                                                                                                                                                                                                                                                                                                                                                                                                                                                                                                                                                                                                                                                                                                                                                                                                                                                                                                                                                                                                                                                                                                                                                                                                                                                                                                                                                                                                                                                                                                                                                                                                                                                                                                                                                                 <?xpacket end="w"?>