src/commonTest/resources/com/ashampoo/kim/testdata/xmp/photo_40.xmp
<?xpacket begin='﻿' id='W5M0MpCehiHzreSzNTczkc9d'?>
<x:xmpmeta xmlns:x='adobe:ns:meta/' x:xmptk='Image::ExifTool 12.27'>
<rdf:RDF xmlns:rdf='http://www.w3.org/1999/02/22-rdf-syntax-ns#'>

 <rdf:Description rdf:about=''
  xmlns:aux='http://ns.adobe.com/exif/1.0/aux/'>
  <aux:ApproximateFocusDistance>398/100</aux:ApproximateFocusDistance>
  <aux:ImageNumber>24948</aux:ImageNumber>
  <aux:Lens>70.0-200.0 mm f/2.8</aux:Lens>
  <aux:LensID>119</aux:LensID>
  <aux:LensInfo>700/10 2000/10 28/10 28/10</aux:LensInfo>
  <aux:SerialNumber>6031249</aux:SerialNumber>
 </rdf:Description>

 <rdf:Description rdf:about=''
  xmlns:dc='http://purl.org/dc/elements/1.1/'>
  <dc:creator>
   <rdf:Seq>
    <rdf:li>Peter Neumann</rdf:li>
   </rdf:Seq>
  </dc:creator>
  <dc:format>image/jpeg</dc:format>
  <dc:rights>
   <rdf:Alt>
    <rdf:li xml:lang='x-default'>Peter Neumann</rdf:li>
   </rdf:Alt>
  </dc:rights>
 </rdf:Description>

 <rdf:Description rdf:about=''
  xmlns:photoshop='http://ns.adobe.com/photoshop/1.0/'>
  <photoshop:ColorMode>3</photoshop:ColorMode>
  <photoshop:DateCreated>2019-06-27T09:25:17.002</photoshop:DateCreated>
  <photoshop:ICCProfile>sRGB IEC61966-2.1</photoshop:ICCProfile>
 </rdf:Description>

 <rdf:Description rdf:about=''
  xmlns:xmp='http://ns.adobe.com/xap/1.0/'>
  <xmp:CreateDate>2019-06-27T09:25:17</xmp:CreateDate>
  <xmp:CreatorTool>NIKON D500 Ver.1.20     </xmp:CreatorTool>
  <xmp:MetadataDate>2019-11-03T16:20:09+01:00</xmp:MetadataDate>
  <xmp:ModifyDate>2019-11-03T16:20:09+01:00</xmp:ModifyDate>
  <xmp:Rating>3</xmp:Rating>
 </rdf:Description>

 <rdf:Description rdf:about=''
  xmlns:stEvt='http://ns.adobe.com/xap/1.0/sType/ResourceEvent#'
  xmlns:stRef='http://ns.adobe.com/xap/1.0/sType/ResourceRef#'
  xmlns:xmpMM='http://ns.adobe.com/xap/1.0/mm/'>
  <xmpMM:DerivedFrom rdf:parseType='Resource'>
   <stRef:documentID>xmp.did:456565f1-e08e-ac4e-a993-e209f7679648</stRef:documentID>
   <stRef:instanceID>xmp.iid:603e738c-da47-4a45-87ff-77554b8fdacd</stRef:instanceID>
   <stRef:originalDocumentID>0069C75FF55EA6B570989A33B81CA6FC</stRef:originalDocumentID>
  </xmpMM:DerivedFrom>
  <xmpMM:DocumentID>adobe:docid:photoshop:ca08ac35-b7f3-8144-b247-4add7d17bbd0</xmpMM:DocumentID>
  <xmpMM:History>
   <rdf:Seq>
    <rdf:li rdf:parseType='Resource'>
     <stEvt:action>derived</stEvt:action>
     <stEvt:parameters>converted from image/x-nikon-nef to image/tiff</stEvt:parameters>
    </rdf:li>
    <rdf:li rdf:parseType='Resource'>
     <stEvt:action>saved</stEvt:action>
     <stEvt:changed>/</stEvt:changed>
     <stEvt:instanceID>xmp.iid:456565f1-e08e-ac4e-a993-e209f7679648</stEvt:instanceID>
     <stEvt:softwareAgent>Adobe Photoshop Camera Raw 11.4.1 (Windows)</stEvt:softwareAgent>
     <stEvt:when>2019-11-03T16:09:15+01:00</stEvt:when>
    </rdf:li>
    <rdf:li rdf:parseType='Resource'>
     <stEvt:action>saved</stEvt:action>
     <stEvt:changed>/</stEvt:changed>
     <stEvt:instanceID>xmp.iid:603e738c-da47-4a45-87ff-77554b8fdacd</stEvt:instanceID>
     <stEvt:softwareAgent>Adobe Photoshop CC 2019 (Windows)</stEvt:softwareAgent>
     <stEvt:when>2019-11-03T16:20:09+01:00</stEvt:when>
    </rdf:li>
    <rdf:li rdf:parseType='Resource'>
     <stEvt:action>converted</stEvt:action>
     <stEvt:parameters>from image/tiff to image/jpeg</stEvt:parameters>
    </rdf:li>
    <rdf:li rdf:parseType='Resource'>
     <stEvt:action>derived</stEvt:action>
     <stEvt:parameters>converted from image/tiff to image/jpeg</stEvt:parameters>
    </rdf:li>
    <rdf:li rdf:parseType='Resource'>
     <stEvt:action>saved</stEvt:action>
     <stEvt:changed>/</stEvt:changed>
     <stEvt:instanceID>xmp.iid:a75f4b1a-2e27-ec4d-beca-40aec72796c8</stEvt:instanceID>
     <stEvt:softwareAgent>Adobe Photoshop CC 2019 (Windows)</stEvt:softwareAgent>
     <stEvt:when>2019-11-03T16:20:09+01:00</stEvt:when>
    </rdf:li>
   </rdf:Seq>
  </xmpMM:History>
  <xmpMM:InstanceID>xmp.iid:a75f4b1a-2e27-ec4d-beca-40aec72796c8</xmpMM:InstanceID>
  <xmpMM:OriginalDocumentID>0069C75FF55EA6B570989A33B81CA6FC</xmpMM:OriginalDocumentID>
 </rdf:Description>

 <rdf:Description rdf:about=''
  xmlns:crs='http://ns.adobe.com/camera-raw-settings/1.0/'>
  <crs:AlreadyApplied>True</crs:AlreadyApplied>
  <crs:AutoLateralCA>0</crs:AutoLateralCA>
  <crs:Blacks2012>+59</crs:Blacks2012>
  <crs:BlueHue>0</crs:BlueHue>
  <crs:BlueSaturation>0</crs:BlueSaturation>
  <crs:CameraProfile>Adobe Standard</crs:CameraProfile>
  <crs:CameraProfileDigest>ABB0410514417CFA55F22BBA7035E8AB</crs:CameraProfileDigest>
  <crs:Clarity2012>+78</crs:Clarity2012>
  <crs:ColorNoiseReduction>25</crs:ColorNoiseReduction>
  <crs:ColorNoiseReductionDetail>50</crs:ColorNoiseReductionDetail>
  <crs:ColorNoiseReductionSmoothness>50</crs:ColorNoiseReductionSmoothness>
  <crs:Contrast2012>0</crs:Contrast2012>
  <crs:ConvertToGrayscale>False</crs:ConvertToGrayscale>
  <crs:CropAngle>0</crs:CropAngle>
  <crs:CropBottom>0.926681</crs:CropBottom>
  <crs:CropConstrainToWarp>1</crs:CropConstrainToWarp>
  <crs:CropHeight>2</crs:CropHeight>
  <crs:CropLeft>0</crs:CropLeft>
  <crs:CropRight>0.876252</crs:CropRight>
  <crs:CropTop>0.050429</crs:CropTop>
  <crs:CropUnit>3</crs:CropUnit>
  <crs:CropWidth>3</crs:CropWidth>
  <crs:DefringeGreenAmount>0</crs:DefringeGreenAmount>
  <crs:DefringeGreenHueHi>60</crs:DefringeGreenHueHi>
  <crs:DefringeGreenHueLo>40</crs:DefringeGreenHueLo>
  <crs:DefringePurpleAmount>0</crs:DefringePurpleAmount>
  <crs:DefringePurpleHueHi>70</crs:DefringePurpleHueHi>
  <crs:DefringePurpleHueLo>30</crs:DefringePurpleHueLo>
  <crs:Dehaze>+11</crs:Dehaze>
  <crs:Exposure2012>0.00</crs:Exposure2012>
  <crs:GrainAmount>0</crs:GrainAmount>
  <crs:GreenHue>0</crs:GreenHue>
  <crs:GreenSaturation>0</crs:GreenSaturation>
  <crs:HasCrop>True</crs:HasCrop>
  <crs:HasSettings>True</crs:HasSettings>
  <crs:Highlights2012>+4</crs:Highlights2012>
  <crs:HueAdjustmentAqua>0</crs:HueAdjustmentAqua>
  <crs:HueAdjustmentBlue>0</crs:HueAdjustmentBlue>
  <crs:HueAdjustmentGreen>0</crs:HueAdjustmentGreen>
  <crs:HueAdjustmentMagenta>0</crs:HueAdjustmentMagenta>
  <crs:HueAdjustmentOrange>0</crs:HueAdjustmentOrange>
  <crs:HueAdjustmentPurple>0</crs:HueAdjustmentPurple>
  <crs:HueAdjustmentRed>0</crs:HueAdjustmentRed>
  <crs:HueAdjustmentYellow>0</crs:HueAdjustmentYellow>
  <crs:LensManualDistortionAmount>0</crs:LensManualDistortionAmount>
  <crs:LensProfileEnable>0</crs:LensProfileEnable>
  <crs:LensProfileSetup>LensDefaults</crs:LensProfileSetup>
  <crs:Look rdf:parseType='Resource'>
   <crs:Amount>1.000000</crs:Amount>
   <crs:Copyright>© 2018 Adobe Systems, Inc.</crs:Copyright>
   <crs:Group>
    <rdf:Alt>
     <rdf:li xml:lang='x-default'>Profiles</rdf:li>
    </rdf:Alt>
   </crs:Group>
   <crs:Name>Adobe Color</crs:Name>
   <crs:Parameters rdf:parseType='Resource'>
    <crs:CameraProfile>Adobe Standard</crs:CameraProfile>
    <crs:ConvertToGrayscale>False</crs:ConvertToGrayscale>
    <crs:LookTable>E1095149FDB39D7A057BAB208837E2E1</crs:LookTable>
    <crs:ProcessVersion>11.0</crs:ProcessVersion>
    <crs:ToneCurvePV2012>
     <rdf:Seq>
      <rdf:li>0, 0</rdf:li>
      <rdf:li>22, 16</rdf:li>
      <rdf:li>40, 35</rdf:li>
      <rdf:li>127, 127</rdf:li>
      <rdf:li>224, 230</rdf:li>
      <rdf:li>240, 246</rdf:li>
      <rdf:li>255, 255</rdf:li>
     </rdf:Seq>
    </crs:ToneCurvePV2012>
    <crs:ToneCurvePV2012Blue>
     <rdf:Seq>
      <rdf:li>0, 0</rdf:li>
      <rdf:li>255, 255</rdf:li>
     </rdf:Seq>
    </crs:ToneCurvePV2012Blue>
    <crs:ToneCurvePV2012Green>
     <rdf:Seq>
      <rdf:li>0, 0</rdf:li>
      <rdf:li>255, 255</rdf:li>
     </rdf:Seq>
    </crs:ToneCurvePV2012Green>
    <crs:ToneCurvePV2012Red>
     <rdf:Seq>
      <rdf:li>0, 0</rdf:li>
      <rdf:li>255, 255</rdf:li>
     </rdf:Seq>
    </crs:ToneCurvePV2012Red>
    <crs:Version>11.4.1</crs:Version>
   </crs:Parameters>
   <crs:SupportsAmount>false</crs:SupportsAmount>
   <crs:SupportsMonochrome>false</crs:SupportsMonochrome>
   <crs:SupportsOutputReferred>false</crs:SupportsOutputReferred>
   <crs:UUID>B952C231111CD8E0ECCF14B86BAA7077</crs:UUID>
  </crs:Look>
  <crs:LuminanceAdjustmentAqua>0</crs:LuminanceAdjustmentAqua>
  <crs:LuminanceAdjustmentBlue>0</crs:LuminanceAdjustmentBlue>
  <crs:LuminanceAdjustmentGreen>0</crs:LuminanceAdjustmentGreen>
  <crs:LuminanceAdjustmentMagenta>0</crs:LuminanceAdjustmentMagenta>
  <crs:LuminanceAdjustmentOrange>0</crs:LuminanceAdjustmentOrange>
  <crs:LuminanceAdjustmentPurple>0</crs:LuminanceAdjustmentPurple>
  <crs:LuminanceAdjustmentRed>0</crs:LuminanceAdjustmentRed>
  <crs:LuminanceAdjustmentYellow>0</crs:LuminanceAdjustmentYellow>
  <crs:LuminanceSmoothing>0</crs:LuminanceSmoothing>
  <crs:OverrideLookVignette>False</crs:OverrideLookVignette>
  <crs:ParametricDarks>0</crs:ParametricDarks>
  <crs:ParametricHighlightSplit>75</crs:ParametricHighlightSplit>
  <crs:ParametricHighlights>0</crs:ParametricHighlights>
  <crs:ParametricLights>0</crs:ParametricLights>
  <crs:ParametricMidtoneSplit>50</crs:ParametricMidtoneSplit>
  <crs:ParametricShadowSplit>25</crs:ParametricShadowSplit>
  <crs:ParametricShadows>0</crs:ParametricShadows>
  <crs:PerspectiveAspect>0</crs:PerspectiveAspect>
  <crs:PerspectiveHorizontal>0</crs:PerspectiveHorizontal>
  <crs:PerspectiveRotate>0.0</crs:PerspectiveRotate>
  <crs:PerspectiveScale>100</crs:PerspectiveScale>
  <crs:PerspectiveUpright>0</crs:PerspectiveUpright>
  <crs:PerspectiveVertical>0</crs:PerspectiveVertical>
  <crs:PerspectiveX>0.00</crs:PerspectiveX>
  <crs:PerspectiveY>0.00</crs:PerspectiveY>
  <crs:PostCropVignetteAmount>0</crs:PostCropVignetteAmount>
  <crs:ProcessVersion>11.0</crs:ProcessVersion>
  <crs:RawFileName>DSC_2304.NEF</crs:RawFileName>
  <crs:RedHue>0</crs:RedHue>
  <crs:RedSaturation>0</crs:RedSaturation>
  <crs:Saturation>+19</crs:Saturation>
  <crs:SaturationAdjustmentAqua>+38</crs:SaturationAdjustmentAqua>
  <crs:SaturationAdjustmentBlue>+13</crs:SaturationAdjustmentBlue>
  <crs:SaturationAdjustmentGreen>+19</crs:SaturationAdjustmentGreen>
  <crs:SaturationAdjustmentMagenta>0</crs:SaturationAdjustmentMagenta>
  <crs:SaturationAdjustmentOrange>0</crs:SaturationAdjustmentOrange>
  <crs:SaturationAdjustmentPurple>0</crs:SaturationAdjustmentPurple>
  <crs:SaturationAdjustmentRed>0</crs:SaturationAdjustmentRed>
  <crs:SaturationAdjustmentYellow>0</crs:SaturationAdjustmentYellow>
  <crs:ShadowTint>0</crs:ShadowTint>
  <crs:Shadows2012>+80</crs:Shadows2012>
  <crs:SharpenDetail>15</crs:SharpenDetail>
  <crs:SharpenEdgeMasking>45</crs:SharpenEdgeMasking>
  <crs:SharpenRadius>+1.7</crs:SharpenRadius>
  <crs:Sharpness>78</crs:Sharpness>
  <crs:SplitToningBalance>0</crs:SplitToningBalance>
  <crs:SplitToningHighlightHue>0</crs:SplitToningHighlightHue>
  <crs:SplitToningHighlightSaturation>0</crs:SplitToningHighlightSaturation>
  <crs:SplitToningShadowHue>0</crs:SplitToningShadowHue>
  <crs:SplitToningShadowSaturation>0</crs:SplitToningShadowSaturation>
  <crs:Temperature>6400</crs:Temperature>
  <crs:Texture>0</crs:Texture>
  <crs:Tint>+24</crs:Tint>
  <crs:ToneCurve>
   <rdf:Seq>
    <rdf:li>0, 0</rdf:li>
    <rdf:li>32, 22</rdf:li>
    <rdf:li>64, 56</rdf:li>
    <rdf:li>128, 128</rdf:li>
    <rdf:li>192, 196</rdf:li>
    <rdf:li>255, 255</rdf:li>
   </rdf:Seq>
  </crs:ToneCurve>
  <crs:ToneCurveBlue>
   <rdf:Seq>
    <rdf:li>0, 0</rdf:li>
    <rdf:li>255, 255</rdf:li>
   </rdf:Seq>
  </crs:ToneCurveBlue>
  <crs:ToneCurveGreen>
   <rdf:Seq>
    <rdf:li>0, 0</rdf:li>
    <rdf:li>255, 255</rdf:li>
   </rdf:Seq>
  </crs:ToneCurveGreen>
  <crs:ToneCurveName>Medium Contrast</crs:ToneCurveName>
  <crs:ToneCurveName2012>Linear</crs:ToneCurveName2012>
  <crs:ToneCurvePV2012>
   <rdf:Seq>
    <rdf:li>0, 0</rdf:li>
    <rdf:li>255, 255</rdf:li>
   </rdf:Seq>
  </crs:ToneCurvePV2012>
  <crs:ToneCurvePV2012Blue>
   <rdf:Seq>
    <rdf:li>0, 0</rdf:li>
    <rdf:li>255, 255</rdf:li>
   </rdf:Seq>
  </crs:ToneCurvePV2012Blue>
  <crs:ToneCurvePV2012Green>
   <rdf:Seq>
    <rdf:li>0, 0</rdf:li>
    <rdf:li>255, 255</rdf:li>
   </rdf:Seq>
  </crs:ToneCurvePV2012Green>
  <crs:ToneCurvePV2012Red>
   <rdf:Seq>
    <rdf:li>0, 0</rdf:li>
    <rdf:li>255, 255</rdf:li>
   </rdf:Seq>
  </crs:ToneCurvePV2012Red>
  <crs:ToneCurveRed>
   <rdf:Seq>
    <rdf:li>0, 0</rdf:li>
    <rdf:li>255, 255</rdf:li>
   </rdf:Seq>
  </crs:ToneCurveRed>
  <crs:ToneMapStrength>0</crs:ToneMapStrength>
  <crs:UprightCenterMode>0</crs:UprightCenterMode>
  <crs:UprightCenterNormX>0.5</crs:UprightCenterNormX>
  <crs:UprightCenterNormY>0.5</crs:UprightCenterNormY>
  <crs:UprightFocalLength35mm>35</crs:UprightFocalLength35mm>
  <crs:UprightFocalMode>0</crs:UprightFocalMode>
  <crs:UprightFourSegmentsCount>0</crs:UprightFourSegmentsCount>
  <crs:UprightPreview>False</crs:UprightPreview>
  <crs:UprightTransformCount>6</crs:UprightTransformCount>
  <crs:UprightVersion>151388160</crs:UprightVersion>
  <crs:Version>11.4.1</crs:Version>
  <crs:Vibrance>0</crs:Vibrance>
  <crs:VignetteAmount>0</crs:VignetteAmount>
  <crs:WhiteBalance>Custom</crs:WhiteBalance>
  <crs:Whites2012>0</crs:Whites2012>
 </rdf:Description>
</rdf:RDF>
</x:xmpmeta>
                                                                                                    
                                                                                                    
                                                                                                    
                                                                                                    
                                                                                                    
                                                                                                    
                                                                                                    
                                                                                                    
                                                                                                    
                                                                                                    
                                                                                                    
                                                                                                    
                                                                                                    
                                                                                                    
                                                                                                    
                                                                                                    
                                                                                                    
                                                                                                    
                                                                                                    
                                                                                                    
                                                                                                    
                                                                                                    
                                                                                                    
                                                                                                    
<?xpacket end='w'?>